Arezim/Project-3-1/ws/src/iiwa_dynamic_demo/reachable_samples.csv
x,y,z,m_robot_joint_1,m_robot_joint_2,m_robot_joint_3,m_robot_joint_4,m_robot_joint_5,m_robot_joint_6,m_robot_joint_7
-0.35031561470277284,-0.3599949311524659,1.5734313948432839,1.3140897282158126,0.01974599496369489,-2.113743853915884,1.573533095762214,0.27387125534641177,0.6917455262632304,1.3928182531692985
-0.008275209675290943,-0.3512372977510586,0.5190261659812021,-0.6209185698840778,-1.9707615779269971,0.3563874096167825,1.5225542137307082,-0.11397723375327962,0.214602702521987,-2.6201945045338833
-0.4957175373271487,0.09227574913987766,1.747571457632706,-1.7380508549064793,-0.5237342051582137,2.4226305793598413,-0.5016150993688007,-0.5003813024950658,-1.5206534232205509,-0.6132678206787752
-0.12082399172157968,-0.23867300301630173,1.8348045285077206,0.712796116590019,-0.6388765621843799,0.5152990616289452,-1.1511721688137815,0.20082714883018316,-0.05421827163124382,-1.422685406715429
-0.17545343561278703,0.37756050994879936,1.3997823176386237,2.597243724484883,-1.2327441556907748,-1.2763115644383198,-1.8362573745383404,-0.9776083014697838,-1.4341560133716666,1.5412572063767898
0.6280197740136851,0.2856527629244841,0.8558953641972208,-1.3590294168808958,2.0519397856830333,1.8099216625020982,-0.4461527116997652,-2.5264509088426226,-2.0011325881412882,-0.5160384887851177
-0.00810357592095173,-0.606140738977196,1.4539933990291347,2.2284257164011128,0.8508995273487443,1.711910750215528,-1.5676903681814118,-2.6988880616328492,1.119299163865222,1.7251832037384918
0.1610263340737475,0.5388970642034325,1.415160633916523,-2.792327191464996,-1.5697438861524557,-2.2000913982430297,1.410244951919155,-1.6556651022278581,-0.49887862391161386,1.965043945673997
0.5943678689165262,0.5205407862001814,1.466338375514767,-0.7189680380593217,1.1864277955256073,1.3808383044872703,0.1691935388519883,-2.2144466166114953,-0.13410265904977092,-1.095854463824059
-0.2627026014941058,-0.18073523236840516,1.6082111271291248,-0.28826546106685713,-1.1693799936961056,0.38548458084142423,-1.553228720539613,0.8528137255681174,1.1583201396678398,-1.1265197259984905
-0.12382957852336587,0.20380922357682318,1.3879437226519473,1.3285794716544541,-0.3591170208185217,-0.695063003406676,-1.9484539212914305,0.05821058513118915,1.5441412203569445,-0.48211764180886085
-0.5626486115090057,-0.5101493268750887,1.3339814394980407,1.6285770153083088,1.2758128316569866,-1.4103877079678668,1.1432001680322674,1.1418172920040255,0.3529190515401597,1.990015086054353
-0.32276349622040335,-0.36743654778198376,1.5140111839640615,-1.8847262772092261,-0.3622505197751087,-1.5107999456659456,-1.55951879928518,1.2261778945590707,-1.5946120334914997,2.4102000964308723
-0.09542653466911502,-0.313160373907561,1.9419083336149354,-2.7082534341808744,0.1585628576871616,1.8392736387510582,0.4653033099933386,-0.8534262273266071,0.1696264979424722,-1.3615475670941184
0.030727735372385878,-0.5942867569218313,1.4320485153269056,0.9857527011327205,-0.4177981541350744,2.021535780375507,-1.6140274892997373,0.9745186760278162,-0.6310779424062138,2.4544063122114212
0.7986224758009106,-0.24198451772847077,1.1327030111688268,1.772482466401303,-1.4547348114150478,1.7033208414780172,-0.8656793504076363,-0.8220377852373373,-0.29149057798268396,-1.763907159252324
-0.397063857098867,0.6632464896825757,1.1392850084387645,-2.723679984129267,-1.6426668779734854,1.8840195252955056,0.3781251311512488,-0.847989949427812,1.606676080668822,1.088443886983788
-0.5355825601540468,-0.24836944335057085,1.6439183326856857,-1.639408979420426,-0.7169325260903636,-1.5335531890245275,-0.781081882332604,0.673659382729296,-1.638538310981908,-1.989213309102077
0.31532339936632486,-0.14409187336795753,0.7192740515961014,0.5232161074376815,-1.6039245820995132,0.49257608350969884,1.875163503371978,0.5904583883272516,-0.418197650957562,1.9417646858030655
0.6679916601804969,-0.15632315502738225,1.2280837275869128,-2.426354926920533,1.0133974353546735,-1.8851745948914571,1.3757979838969239,1.8740047158184923,0.41365351677708606,-2.940598853146917
0.3345142260830505,-0.18581850179387158,1.3993033796596632,0.5432910805582245,0.29065946182634406,-2.6585441453281318,-2.03341437710147,1.0187535079407866,0.3586224358000547,0.8802890709438689
0.3450562918126755,-0.14265370187975546,1.7269589783195083,-2.8182533722798255,0.8703925729997044,2.5070000856244286,-1.266871165470159,-1.2183121887875201,0.48701000857817744,-1.2709477950744628
-0.01078771429532268,-0.21307969877288374,1.8883190389365008,-2.6817123212129856,0.5467563615817235,-2.62053152493658,-0.6648949745062918,1.9690028727663758,-1.2223756937653842,0.5214497742239561
0.07341452761142991,0.45975492801191464,1.103281868612483,2.2539435417742983,-1.9096373854458273,-1.219046584391378,-1.931035661888408,0.10900830980698606,-1.9969235906776812,-2.2925192776873957
0.397075812382604,-0.2708366234144255,1.7563172699095717,-1.3314472607840488,0.1057948740482022,-0.8512107069452903,-0.9953441150048454,-0.8892911080375137,0.08636453514535747,0.8013357298114103
0.414230869527978,-0.17653751226398623,1.8696205907295806,1.7470596953981796,-0.35084658996657847,-1.0412298187613498,0.48911401437160684,1.2024130718268142,0.16497141138978133,-2.4922913041756254
0.701259923328524,0.1920676597599198,0.9928517209250629,-1.743608834130623,1.7635125434966445,-1.3285139274629418,0.9778426842389889,1.5361316506038016,1.2594105230381696,1.27866582358152
-0.21760325235966352,0.49363853684159964,1.0588284443965845,2.5778100246252786,-1.6384523498180426,-1.6294415558105577,-1.7254833942276464,-0.9882040325951822,-6.416062861136496e-05,0.24939749284955592
0.3786248176709318,-0.25817407819643706,1.7634186744476392,0.7618118541215653,-0.5931062741631503,-0.8071010813143311,-0.2616152201806543,-1.3603119046909942,1.9679662500394501,-2.8783794681686152
0.19985867536814395,-0.24818732513135988,1.9226092254577822,-2.8232429750608095,0.16216575001783484,-2.019654781960373,0.290871002397604,2.2206487446083547,0.8707784344179048,1.2922048663971881
0.36365982130152075,-0.17193999780378114,1.6915477864106023,-2.5384787909295237,0.06672873396583467,0.72437107689891,-0.8941623615748715,-0.057279105008636755,1.7169430028939399,-2.3298930846985044
-0.6198213587221861,0.1527384576508585,1.198252735379459,-1.9700437370292172,-0.8920701095804953,-0.04751221625851665,1.2251939394512323,-1.3069790641134444,2.0270048576616073,1.8778290510584852
0.579794619225679,0.26683002791481725,1.427088262424228,-0.46308348299250657,1.1324333217523157,-1.5430198134487663,-1.154524274431007,1.0754626253458182,-1.2360570870926177,1.3380438364473002
-0.24279898849462417,-0.09402029870154732,1.762371284842436,2.295633308187075,1.0324490163306357,-2.8992448813252696,-1.3529794321204607,-2.0446320152157273,-0.2213744693302715,1.8484623390145134
0.6510585010936406,-0.2776256141842949,1.5945032118219877,-1.4977245485005037,0.9678323947887293,-1.5537985792276259,-0.5886957962908215,-1.1705129401996213,0.6463618505760516,-1.817753733251282
0.25899377867077056,0.04244389352168569,1.9060080023812587,-1.2147950064214235,0.4105999150751436,1.280500098246232,0.1707774984968049,-2.2447244175367693,-1.3558022293345648,-2.7983202560091422
-0.7872411975316231,0.29891644515123494,1.0273293591060662,-1.872869736574051,-1.671121518331534,-2.350448449143052,0.1647084795954581,-1.5666237809260892,0.9764207200637118,2.3808525190059027
0.5856658398738347,0.28666818571245384,1.6327010293250033,1.9662684426637198,-1.1013722352161788,-0.7620386782043655,-0.49255379972383895,2.238163141395949,0.9299744217267327,0.07067609498405902
0.42819966539489485,0.6703015131259658,0.8050727415804654,2.5732734391996197,-1.9229292088087653,0.22858272859882245,0.07092892087527236,2.413190519967476,-0.5178759605678915,2.12352784694164
-0.21646707008361918,0.25046251333035036,1.8297984240594287,-1.5864667196348008,-0.6175162985790277,-2.2457212192922302,0.9247985563310364,-0.1400061342387957,0.0865428119666043,-2.481727024642979
-0.725301090209582,0.08740015977801019,1.4370022853222237,1.4949843264125877,1.0211597042843317,1.8293365855155712,0.2504890496376584,1.4534317762540856,-1.6830410597613579,1.574800955553727
-0.49449417274254787,-0.16821396961441665,1.7596659326987656,1.9634527650167777,0.4889058351797271,-1.0474357589276677,-0.3565524446724886,-1.492243199070965,-1.4075224293032238,-2.853259610925415
-0.08584672054467485,-0.02858624385711256,1.959358392071039,-2.225328452966325,-0.16817049608475387,0.10564850914313562,0.01022943220535577,2.5540107831366767,-1.186856654788174,-2.1000158362028754
0.38725951333458386,0.7079648806171251,1.1327774582052628,-0.13291226307058768,1.4674878953321193,1.8536399932420546,0.6631731024044867,-1.8734287164018044,-0.280023413003774,0.5984151551251293
-0.7453580424131128,-0.1090392385098375,0.6767081926699365,-1.459950224200274,-1.792861281999057,-0.11964289993768462,0.5508363981190505,0.6704675837727243,-0.1434974324638567,2.8644295379170743
0.28383821495155975,-0.4726113453953561,0.7170824392431903,1.2696346766124749,-1.659059981879238,2.389556683213978,-1.5891071115915651,2.6307644869031868,0.2615976230479169,-1.1341516494230526
0.6021479103920747,-0.0850776756705805,1.3645294373043555,0.6199178003046741,-1.1829341322008875,-1.396155434795229,-1.545017565047647,2.5521164312053144,0.21238220215621784,-1.3123938128889256
0.1819192899987156,-0.4556421424736191,1.4459295212010668,-2.7502687519461717,0.037650051847592625,0.20097503287814744,-1.686906658515697,-1.330868080008178,1.1864520722610212,0.40200142791605264
0.46449835816796703,0.42270212820213776,1.1280233361441407,2.914525046424146,-1.4341725853076688,-1.61818544688444,1.195171083746593,-1.4837789048671364,1.9333693472344362,-0.2937961163703737
-0.08532481601212061,0.34970430698286564,1.696770313514941,-1.5075442341591598,-0.1574588963046435,1.6459970718249184,-1.2603383769118968,1.0241904303037592,-1.1494216890238436,0.3824788734600597
-0.3643355489853226,0.050152207804036154,0.5091459285644835,-1.753465319786147,-1.9113874192895708,0.051936608936230755,1.2896566222848462,-1.7259271497348287,-0.7599762175613947,-1.6608087508352465
0.664492130178985,0.36102374625643235,0.7124207808495165,1.9662385092142052,-1.949685456851417,0.6553117661254189,0.3233932091029432,1.7126116664515032,-0.6200662956410852,2.141817488817241
-0.14086971850295216,0.6911762032178772,0.8350975142224949,0.4193158466467737,1.647062993501279,2.5491672443385105,0.525575655094757,-0.289922149082563,-1.2249422896161177,-1.4066575544185387
-0.05606702318341289,-0.10988468414470834,1.896767701803238,-2.3397383269914753,-0.07685876044882889,2.8268290850553517,0.35404749680729175,0.8927752220181793,1.9381818393674473,-2.538506937562769
-0.20851288008608793,0.24749657655462107,1.5024172160793516,-1.2850589245129782,0.43675327742867864,-0.8247391742623669,1.9481964348358005,0.5555268446695796,0.9362557225249488,1.7475495303947892
-0.19338660373858507,-0.5809130278376609,0.868288795619339,0.5418579355926507,-1.7092423033098447,1.9645350729685815,-1.623043257358729,0.6317068360479996,0.15137657382133973,-0.22718324346020458
0.29973560809105987,-0.4434316325332782,1.529219060071146,-2.4787072097899183,1.549291157577771,-0.18177080049678507,1.3364285303935413,1.422787060845351,-1.457875075327454,-2.1116285955597722
-0.3588979129195346,-0.25928740920073007,1.754894024589599,-0.801456487196996,-0.3298361390235025,2.238041363608748,-0.5560952382776452,-1.4072904336099576,-1.9490318090590295,-2.283502100082453
0.15239597811769534,-0.3356684098914622,1.521458235941511,1.0527844183714694,0.3267781977376245,2.800912597145604,-1.6962291771379856,-0.4643498673905002,1.0812098607701945,1.753444041943395
-0.008755733523193844,0.290555517054693,1.8210156405521727,1.7223392865792602,0.25645823796897904,1.0166634327847666,1.039344790705857,0.5692093462060224,0.24737308355919563,-0.3737437237449326
-0.1644785653371894,0.7859360897208543,1.1258015699053072,-2.7136402576463605,-1.3039180017243535,-0.7259799148148005,0.5836599148441137,2.6725593528617817,0.3497427570932863,-2.5476894048686916
0.08036983168442025,0.3057560235999986,1.626838537336216,-0.8648310736695688,1.300551872298091,-0.45154822003850326,1.6446510661761584,-2.7703233029253838,-0.471409736587723,-2.163526420603419
0.5020186568080551,0.18849694473711165,1.3729780281171577,-0.3641069885975661,0.46136133743880325,2.010643018168238,1.6517950331047069,-1.0675105436243622,0.9073631073805082,-0.39453559703378493
0.46787164783771634,0.11262520059214076,0.5210743644743141,2.1702448489877857,-2.0213361680156443,-0.5909534883741556,0.8566615530537036,1.287788888424266,-1.172759813191027,-2.3898587549101276
-0.4004141982589057,0.5489365847382949,1.4491766108193989,-2.4427072127948763,-1.6195891192522027,-2.8327548198433243,0.9354294331367745,1.6008393644784822,0.495857905227127,-0.4164207531915265
0.031772354559491615,-0.6480631062206283,1.563635484751797,2.686174087351455,0.6751684709907839,0.9090014291261692,-0.8503116254517629,1.4945043617161322,1.536763609270274,2.9872588008515675
-0.11895073171462386,-0.6202724863849199,1.212123774692144,0.4768328913798885,-1.4620515206369111,1.5873020749213684,-1.339725116189064,2.221341882216318,-2.00352944823918,0.8832440486174704
-0.4159931856529262,0.6253121556856671,1.2419562233944728,0.48634727988435955,1.4840388219936642,-1.3271529693122388,0.33268083938843684,-0.6639444812113195,1.8134033062643136,2.004121727837241
0.7355973665286777,0.2870300824073868,1.2474787292428555,-1.5474552821718421,1.5549884788874686,-1.1188798001600881,0.8679351879334667,-2.360905105718104,-0.48443916425079525,-0.45009853609322104
-0.3685353616492351,0.06766739687654708,1.3550959124808488,0.13371551530260062,0.0058331402171321045,0.9433762636000025,-1.9214343664760423,-1.999780847528565,-1.3706080131751448,-1.3426770168014146
0.2083044373761364,-0.40071918232354253,1.5363709913723695,-0.30775580004304137,0.04312248776603855,-2.1820276244170103,-1.4625128917746169,-0.8863760095026256,1.4154547936197517,-2.9225824627417185
-0.4094136187678384,0.06926314447883915,1.3694454052531109,-2.5027142568411236,0.07611752402872174,-2.542469694062658,-1.9990871211773473,-0.6748799610166141,-0.20817048202326416,1.5119406838662068
0.3969903846375424,0.06504536302984786,1.0082381394626545,-2.023649465858991,1.1467722689769908,-2.1596619170301903,1.8579476546310292,2.7839283240291217,1.7033633466765923,0.5670188616439287
0.17664368778408826,0.4166506998419196,1.497511773868595,-1.5834091371702184,0.39269731590783863,-1.5105625698476233,1.6200571479350314,-2.1816270407764273,-0.6035377689048407,2.2762316717775817
-0.39677490190742465,-0.05867199515344989,1.5059691972128397,-0.8203095630632804,-1.4437355312653557,0.5102394689459349,-1.8252149948877303,2.1438602943918483,0.9952541997847217,-2.9345096420343246
0.25900640720816925,0.2258091326314265,1.868660769478918,1.964233784600045,-0.2976224072067455,-2.396448882152395,-0.5486580813862088,2.493286812288883,1.0124453939347715,-1.524745388400024
-0.11186582542540466,-0.4838073001068121,1.7485176778281504,-2.680757454686962,0.9111129500110451,-2.3662872704722027,-1.0616036147945902,-0.2783072087830112,-0.06866088360419398,-0.42890676206207257
0.05317755791152131,0.6171713277824231,1.1939278042395765,-2.489473022111881,-1.6297879125564365,-1.735154684776035,1.3485707111802356,-0.8939103610132748,-0.6548252946131656,1.7112768420400415
-0.2922263936874721,-0.3132309807531118,0.5793726526454029,-0.6839242429419259,-1.7002798790469318,-0.12822376023429172,1.5023077060207437,2.2842314766256915,-0.019214110621910585,-2.9508877482664753
0.35902562709730973,-0.13262070015136368,1.9181736935096103,1.570269466991547,-0.5632722838645607,0.5153773298917992,-0.3479493897467507,-0.6132423024460603,-0.18710297106582208,-3.0030408445095413
-0.04970991515068461,-0.23042934592314945,1.902540381817083,-0.9989604032438615,-0.3703757112261368,-1.0395630213965492,-0.3845863314394453,-2.021856105014314,-1.4159340994666687,0.9500770589288656
0.23004343123956805,-0.8302350876684133,1.1600072332373679,0.09589478548539487,-1.61669063969426,2.2588331993574973,0.2534239222411685,-0.3954136356210767,-1.4816076633587838,-2.7464323968836
0.4385621359330113,0.24105338085955047,1.7684494518730662,1.6501289037083011,-0.8292516514645198,-0.891680325168664,-0.7036566848636219,-1.5877304060217445,0.3069812162590253,-1.3038094145574528
0.04612475465503824,0.4503087314023173,1.528413417898037,-1.0050952885037907,1.1779138464036745,-0.9912201331398762,1.528898180998028,-1.0912597654081098,0.10116057721939198,0.3215335245346007
0.3068493835482633,-0.16054211696656456,1.76935066882332,-1.0350106302138502,0.7036928592517002,-2.310969933536414,-0.864335586014392,-0.3711924899238035,1.3223469650908721,-1.7471022395185034
0.534579455811208,-0.5862540888373022,0.7501215407481809,0.47009034057358345,-1.9269915580650923,1.3054295797098665,0.44620824590682906,2.7904091445519765,0.9003795851795711,-1.3359657864535102
0.6850384903690042,0.2610647659034427,0.7405352284102242,2.156325043998702,-1.879815749295361,-0.9102884227239518,0.5683540239244476,-0.3564405492382612,1.1984410815586828,1.6760799005876765
-0.31949209493329933,0.2047208205181516,1.311249914931778,1.0894209957813072,0.0972689898716661,0.0013687886635418423,-2.0112159849557476,1.5922193229444859,-1.3161179464490842,-2.703336841057417
0.10136510919318194,-0.04101417122330956,1.7188370081342892,-0.4052320828708149,-0.6987912008963675,-0.10284463256375487,-1.3995811901779134,2.4909902355179097,-1.1683984881795724,0.001542130216865889
-0.5568447001631947,-0.6109817576829872,1.1881276849164726,2.2440918418114513,1.45844681862781,0.4936251892678314,-0.11373569695706442,1.436356529918871,1.9170702324830744,0.18844209786246324
-0.1532094315839215,0.47114151233448354,1.2186836135468884,0.44431458752867403,0.6064976682005905,-0.10591988317762002,-1.8031708608053165,0.6104157194275319,-1.8063472406053327,0.7462713228697111
-0.15694635272163748,0.7610661667256958,1.09158908924567,0.5607041353538511,1.8195052139372607,1.0229549706285717,0.8535237097180608,-0.36016614066943164,0.31267990897314935,2.917747828270771
-0.4396013017282448,-0.5301481242822694,1.643816620913311,2.402333961081555,1.1993032931116039,2.928537595543062,-0.5996211347253697,1.645295431932134,0.7752108549103971,-0.6992317338632228
0.5168209467154465,-0.15861324714691152,1.7499839844008616,1.3862340494123706,-0.6986052720220328,0.10723359746175998,0.17620124955812466,0.1371583767489324,1.5487154880328555,1.2832922086080107
-0.5774817674129292,0.44380609775585295,1.3400082089191714,-2.2980425460348353,-1.3539209118082336,1.32721989391325,0.10896730554610512,2.142725689264324,-1.9615075691074961,-0.28488898989070854
-0.0067572728983943744,0.19137702276704013,1.8251396849388384,-0.00291261898627182,-0.2566544408682203,0.1165361320216638,-1.0317349912596094,2.226559031371522,-0.6895273189240227,-2.6794835018416494
-0.4578290006055767,-0.6815488189088665,1.2082144971281208,-0.5660220066138679,-1.295687515184124,-2.892307664106327,-0.264075684673194,-1.5023741172350378,1.9481479312342245,0.36134740813732824
0.40139844024502863,-0.7994343499500961,1.1401776726406085,0.338401684225794,-1.6882653865615709,-0.6444217975065145,-0.27523027014048385,-0.4045460029648331,0.9891814023285228,0.46271761134207123
0.10448172349396934,0.2053006697199919,1.4213419245994638,2.801774584368165,0.3400056120847159,-0.15623127361164357,1.956724941943179,-2.56298072229598,1.3609817745056336,0.04027822536626724
0.19619024064863877,0.6244658303801326,1.11826001360855,-2.747801553284111,-1.248883868173694,-1.2075768738212278,1.359582092295696,-2.2032891721471484,-0.026010593398634985,1.9006402530369901
-0.7862450724019412,-0.17614945362237436,1.4847723446633219,1.7451467031597079,1.1976504601938753,-0.9170607103635819,0.024769458966690028,-1.836828899392518,0.762995611833635,2.412248117909854
0.41046714058386297,-0.12135232452757522,1.7007012039374851,0.5081230199126705,0.10289599361819679,0.7434976213082569,1.303623423094606,2.2036790893594325,-0.3260465640255721,2.885370376935519
0.5401914058186615,-0.4170839927231143,0.7602217600854186,-2.640809078271402,1.6537146991266924,0.8165237183276508,-1.0375668732371564,-0.2801740590248172,0.7425589823960834,-2.3202547595948784
0.755396844678791,-0.059746912100729584,1.328122505526909,-2.0958388326438793,1.1671840232481063,-1.8721670521577578,0.920197691081452,1.4127041538971379,-0.7490145551310123,-1.553138543570936
-0.399969358640453,0.27956624102898825,1.5436349444657351,1.5124277297363524,1.3292425150544602,-2.232404408849623,-1.3796598405393259,-1.6497680488265805,0.9443738747392723,2.4638135582131038
-0.4811856177871726,-0.7887544339957204,1.2744897102301032,2.464411861051263,1.394419283377617,1.744371205214439,-0.177592407003067,1.9730157368356056,-0.09794250768384694,2.3244887126935434
-0.22792208365219038,0.7334549071496256,1.1266791802543201,0.6104277293997957,1.7086840131992016,1.275072251631967,0.5739266433337793,2.4977764596953853,1.0010017001110536,2.9655747501160072
-0.40304243744567625,0.3845483534485618,1.6282796309828416,-1.9381569848606657,-0.7956591019655832,-1.31666524464841,0.5426640457001501,2.2375867337275888,1.4825497318873384,-1.311248223010255
0.7815956000096773,-0.002390653407173496,1.3195856831938044,-2.0134631838527923,1.2427000214838486,1.5118566689360446,-0.9072948833668946,-2.739885901538776,0.009909404912775699,3.014631717652948
0.7084551676931411,0.4624845383034565,1.2835333877799386,-0.8469804003893757,1.331459048896658,1.8145085789415796,0.13783088240060337,0.5395461552017182,-0.3956949029316559,-2.0395750737466423
0.25019954895853264,-0.4108710053034954,1.3940785414892205,2.769213379956637,0.5168900416225686,1.49598890543067,-1.551803233868911,-0.6552611988990908,1.9808208159660037,-1.6641667534427402
-0.48283202425200294,0.3394873282452714,1.6836910346522016,0.952078031930248,0.9402647586739676,-2.2072908072473125,-0.33056774971897696,0.8284992691040762,-1.264492122121518,2.7593592303130836
0.40044342498762553,0.3428798198913813,1.7751317164761489,2.084420494880279,-0.6718154082675327,1.1530198639801141,0.36187833020410975,-1.076073150019288,0.7731341745899134,1.2243390351822447
0.36311950286529393,-0.2233260462388452,1.4172471424784794,-1.2074075299353753,1.6235768046482582,0.6596845975727339,2.0214660131621205,-0.6282302835983025,0.7654201915633667,1.0218373468184185
0.06820115055447154,-0.25861491406702464,1.9219090506266143,0.13603181513511942,-0.252235294377285,0.39856113722315234,0.22304865012389152,2.70524832912352,-1.3921408195968041,0.2832755656778758
-0.6357551041209744,-0.12528543176107998,0.8916361911865642,-0.9827221547596332,-1.2685729162878636,-0.6751251209245086,1.4432083979288346,1.4445168254546012,-0.125218888187278,-2.4746952187739444
-0.6475286877705073,0.07660549650797507,0.7071730878646737,-1.9697264626721336,-2.036022065215734,1.585745330738058,0.37311238424228277,-1.5513805182283462,-2.0388754610519495,2.76891015678954
-0.4905871337543662,-0.7029785735208093,1.2709589547718543,2.3450698603459066,1.0159311606552643,0.5388213746757002,-0.741681530032575,1.3891449766801762,-0.5517673314190796,2.400170819945662
0.4495580801290797,0.3019357723398618,1.1056785256636594,-0.07361315746215125,1.3818209111422415,1.635545958734109,1.5329078577751285,0.6859876902581226,-1.2627820009416937,-0.7422150057935375
-0.10526767298712522,0.030995639261238328,1.855501970394785,2.1911445642168146,0.35029484327719373,0.3048718815589271,0.5554297139311228,0.7822875269408587,-1.8211940265611803,1.2708086912169905
0.7356819740311497,-0.43561525832694936,1.0220819509710624,0.7280604390663199,-1.555413374503537,1.145946679838937,0.7743718498220229,2.344600660385845,-0.5362968805994999,-0.8627749470636425
-0.18244695535954547,-0.4998870110402233,1.5070779882800014,0.5369480852536763,-0.32108592377162903,1.8948035710382967,-1.2670178242267038,0.2753868166302893,1.4321646852347616,0.9119572351771335
-0.7536377208627246,0.2281365565311259,0.83472008237069,1.079151811377891,1.9794381410889974,-0.8607909400271194,0.12871090390863849,-0.3270194951679324,-1.1625191671171717,-1.4006707681417487
0.06124265726924523,0.4703534673286144,1.1130803166746235,-0.6348910284157263,0.7236664891286679,-2.5142513958412716,1.999033763954932,-0.15077832566380733,1.103258889711483,2.2375253408099467
-0.636019214571063,-0.46067081997514825,1.0378057885536431,2.0006308124903502,1.2305618685982656,0.23733744403052714,-0.7343895195167185,-2.7446972553589752,-1.335158216695115,-1.9738550348977064
-0.44146481232180035,-0.23043428745357092,1.725519741950645,2.897413330516493,0.4944382925788795,-1.5497884459388116,-0.9576426978278392,-1.3473696904171542,0.7202922799245806,2.421752087308582
-0.23701604046087443,-0.25329025406705574,1.7923374145333497,1.8567021770716363,0.12029556164201338,0.8382945634320689,-0.7736572291970467,1.0146807046068465,-1.9634697601749793,2.9057280410216237
0.6494525444062929,0.4750139916871892,1.0261539586923987,-0.7614780681007045,1.6883845194091385,-1.4459959622239182,-0.07544552243360236,-0.35273816534444435,1.333890986259087,0.30462174254433183
-0.5837969784430231,-0.1543753476415781,1.053297847077341,1.579499006425578,0.9679892613975198,0.07862392925290917,-1.3936319946214675,-2.081321419572687,-1.7696181846503123,-0.6550773287649871
-0.5939765722930442,-0.08625611593745816,1.2136361820762076,1.6039660875723825,0.6143591069326879,0.19565132457499468,-1.6519492892499674,1.0116211232110004,-1.3286910474410807,0.36963801013449693
0.5603192076820274,-0.08711597941894565,1.055280334018544,2.424964722111589,-1.5552263600139504,-1.546055859613609,1.82664642942574,-0.9468684852677189,0.8396000678687119,-0.47124448349220494
0.20722655332147968,-0.2723218217735207,1.8426208333248253,-1.0166830780190697,0.310314567201456,-2.049851455495699,-0.7132064499944333,-0.16889030049492515,0.9491132230651695,-2.2592725432401553
-0.5496753252034862,0.02873586966179561,1.5087240131224853,0.7264055055770307,1.3522796504749843,2.2347941612137343,-1.3228454638865859,0.3464723719329985,0.4986775309486182,1.8842827816544596
0.04447198333902809,0.3962428607791552,1.280184576701857,2.2986613135689864,-1.8191143607987537,-0.7737242774471453,-1.7589465646658067,2.5466288200962848,-1.473637150982633,1.1135708263840844
-0.04453436481992265,-0.1776297093741966,1.9960903064889033,0.045112264429556515,-0.13472315529796197,1.1513996086713107,-0.0948096138714507,-1.5140575782767531,-0.3186571051554892,-1.9635104864245343
-0.0035251754153045184,0.6326564409525586,1.0580117226486498,-0.5929424536545431,1.7712714337844893,1.820109929785659,-1.040433719386012,2.6882768688287437,-1.4861758786337624,2.8988301240565835
-0.7898644643176067,-0.3487866456235383,1.318431865621088,1.9389023486440586,1.3144717432647806,-1.5304711851906971,0.1347754710202329,0.18252141147474488,0.9840832015794265,1.9667074441260195
0.18702514218075614,-0.12878520413761443,1.9759406916599591,-2.4773732877307104,0.155577393686666,-1.76316755457917,0.16957019268005258,2.43576621754123,0.419082198181171,0.559111030764301
0.09480754099794757,-0.15877807483529233,1.931546591912931,2.0940794208613167,0.10730630557936083,-1.2451312064512547,0.5056223709135228,-1.002129098432735,1.224951514468687,-1.7069530030527607
-0.23252969890941094,-0.6759487225352903,1.6647913141544766,-0.6928891752153397,-0.7208781601988139,-2.0612181255284634,-0.5202186645763136,0.8849918069490332,0.15211435583673127,-2.861685229460088
-0.38899445866620613,0.05389997744377864,0.911249661485521,0.7778668276436553,1.1609996481359959,-2.776154928193317,1.9647771756377637,1.2641427440434394,-1.4061219856281708,0.4766602133818232
-0.49448498319678325,-0.12204507340855505,0.9969515633225084,1.4539376492297262,0.8966295795149417,-2.6314607731009687,1.8105341958596188,1.7556748652199166,1.3398477465974303,-2.9355659351496173
-0.4880495405366801,0.5778981305420425,1.0353148089369852,-2.3685041821861406,-1.3276999631920945,2.6833130405187036,-0.5356894481772474,0.4864138085222107,1.2784912343703847,1.8049025159442116
-0.2450665998643896,-0.3796133380091687,1.7711713379806968,0.2936775879436655,-0.45579266441353705,1.4392073581713105,-0.7175388124788475,2.759843213523594,-1.1481799782184297,0.12373132053166991
0.24561525021080327,0.36644416024510673,0.8528168740558114,0.5401728652107058,1.8592204397344947,-1.2155531202185728,-1.8385311410192378,1.6137286275546923,0.27335756752741114,-2.0857368309980733
-0.689003824791661,-0.5570692109009423,1.0057623214028644,1.9651557793568268,1.4838798282694774,0.8611989568519909,-0.594557548032183,1.057401601415676,-0.01367650901762385,1.3540738765219236
-0.8143594329428099,0.08609310769888223,1.4425677787647577,-1.5677507507915742,-1.1733507110792165,-1.541863409866582,0.26236226445055477,0.28646160583304603,-0.19301868133769373,2.4068543993701126
-0.681253698972103,-0.06691194972737534,1.2087036798247408,-2.3007830698739866,-1.4138178095338731,-1.5899166660909183,-1.422998367658556,2.080003486232806,0.41958794911693387,2.4578554844100178
-0.27317320880283197,-0.010031294726470772,1.7001614892675683,1.3718535699596797,-0.3915141909240927,0.035687489215172175,-1.5128697287340516,2.841643971594842,-0.09746308099989642,2.8269828199791553
0.012305059159203033,0.45503947876155404,1.4541503456151041,0.7707350218393172,0.46042062688833774,2.0956342166328015,1.2774263129398786,-0.5032864405083917,-1.6870457237196226,0.04795350081578986
-0.4524793961666429,-0.33498205227250333,1.620620545659777,-0.08218472354761763,-0.8013895201551053,1.2605988068562302,-1.2340723340247652,0.6654386673115016,-0.12028377619516561,-2.764692100230109
0.01517393134963842,-0.646401809615312,0.9268553325338943,-2.3652227153238745,1.5794887771984736,-1.3081086295857138,-1.5784160349266423,-1.2682164062078198,-1.0609800765220356,-1.9053139072791632
0.18135118139791048,0.29744556545176926,1.6658654414975413,1.0534751051040105,-0.12067111546946463,-1.3127793577722906,-1.4401857842127774,0.2735392115634556,-1.410584083930317,-2.661378547213046
0.3255488534501183,-0.2723850463963671,1.6123365738958881,1.8197975967757354,0.09003360205519773,-0.8788481545185829,1.5857432205274922,2.512090841973531,-1.3044713231312681,1.8798697766642944
0.15618805942024963,-0.49442023275101665,0.9085070695216234,1.266980175087165,-1.5415597644281813,-0.9278261608571396,1.842298299788458,-1.1805310156900104,-0.8952628225195187,2.493934284478255
0.4383518954661426,-0.4464569352518118,1.6358945930814814,0.28355753965103325,-0.6148464187125764,1.1335204943130992,0.6858934021645497,-2.648789209203887,1.0713860075180048,-0.987947388845384
-0.28624258883691517,0.28544854087760707,1.6152785178136773,-2.930083209065402,-1.1245815384745972,2.44203954654123,1.3685273145437904,2.809654157042661,-1.846149920766916,1.7944235414647998
-0.19092062458117554,0.5943285809729867,1.5858935754518662,0.2734315450840481,0.8251317933705602,-0.6922662746450308,-0.2613032908873567,1.943260043375536,1.5391041113594217,1.0133876810070324
-0.5286519186792858,-0.5829665429296332,1.144533712133909,2.835806711361523,1.2362305774247102,2.020542087613548,0.9089004709226325,0.27754487866090205,-0.9908412572205225,1.9058534728836336
-0.4346194333824441,-0.1459951083973069,1.21925140580432,1.2963216733316743,0.3274949397238527,-2.532287185994992,1.85685492342042,-0.27657956007284135,-1.141353035878085,0.7613388518179778
-0.6184879012708979,0.35544478593951473,1.24664826346858,1.1380384339700869,1.9988307203369695,-2.917250493624628,-1.1793380057850575,-1.0554283367572825,-0.15326878969724977,1.7817980856662374
-0.6793320805395973,0.015348622470906067,1.1722527969658367,2.0919051571105043,1.23000382495681,-1.3170155546215596,-1.4452613692561564,2.8203322785439497,1.2355367254250846,-0.3775767173631053
0.248246070909648,0.6410285871230251,0.7816784402750659,2.820763788272729,-1.8794308526553791,0.3451361259796575,0.36892951730762524,0.6377887414371046,1.7958827257057437,0.31942590860882625
-0.2802007483080781,-0.40730063520323306,1.2888209532122632,-1.6069194429754898,-0.5026950726821511,1.3361921160049808,1.7685732646258976,-0.8157733804277325,-1.4429229185195034,0.8433184393115218
0.050805593549318476,0.6905421245623007,1.2001058675482281,-0.3142751846469114,1.0418094950438284,-2.815435393950384,0.9513297952683306,1.7018355290487928,-1.4372701803209662,1.2109524984717024
-0.3585438890952525,0.2730475310198518,1.6835579279105384,-1.6570599848636522,-0.23973301731316687,-0.9933938616577274,0.8806831065468743,-2.5601706482104483,1.1424950753114684,2.0663283882728156
-0.0040792330055791914,0.49688183696862004,1.4639312923877617,-0.0002998055547713818,0.3917157480547404,0.22097138000360195,-1.221291056717961,1.7649892622899412,-1.8196544419193001,-2.2269407709042515
0.4570906012197409,0.04218822525430615,1.6010375965488544,0.6818995494959839,-0.876981473097523,-1.0468913601019383,-1.4428215161090192,-2.7385267115683916,-0.012449913390643275,0.14475759255178877
-0.09345338264288648,0.033150871912852535,1.4785141005853706,2.3350673216306865,1.050594706043193,-2.829795935975268,-1.9725214062836103,-2.8652199239958906,-1.5678129937946577,1.442240491007944
0.5041238383414848,0.08242888797034406,1.5804028514573827,-2.0532194717124264,0.5893845865613834,-1.7712517828610606,0.8909457286573899,0.15432486665014133,-1.6559092080220028,0.22843895757754717
-0.2507573936459282,0.3803715497020943,1.3010597914084039,-0.2847777301675323,0.33098879485338717,1.0619884099893309,-1.841766421200818,1.65873848498792,-0.7099931017344057,-1.4768389388657597
-0.03761467585271666,0.17334409562605196,1.7447743970208829,1.085834706920648,-0.26450482780688667,-0.5906596809785651,-1.3455371339009623,2.9222779218105255,1.8913724813686557,0.2786929263638558
0.6787277454210632,0.19208092515228137,1.032048018985648,-1.6315143382996018,1.39814547072034,-1.9770929572068658,0.8647459476206159,-0.898868189798744,-1.6020535184585831,1.852847313453982
-0.22934507622299397,0.790130309017966,1.1160588277714434,-2.7220585040654472,-1.7470050174695766,-2.6229311545334517,0.4464006453165923,-1.5224854971200683,0.4826238208675995,-2.2828191998858074
0.07270546325617525,-0.5604243288412493,1.628325677145491,-0.9461031867872987,-0.42510691592443495,-1.5733990355586398,-1.2444709217733982,-0.7749461856245254,0.05773464080994373,1.225398729476416
-0.7858791013960257,-0.43339092414207037,0.9311812590698373,2.0255463451276268,1.7854766220854414,2.7127430802219865,-0.10352837984685959,-0.14129443588039692,-0.5032484458763657,-0.3996248460896261
0.7417306470487375,-0.40442544326013813,1.392755976800706,1.393384113214561,-1.3597444176695168,-2.0417012515589907,0.5376734877311886,-0.20220852092987585,0.029089611156591477,-2.9127556006896604
-0.05557955236602943,0.245675565597196,1.825428287485339,-1.3578070594901375,-0.27398920955339245,-2.094181165643395,1.076545948318949,-2.7769318734522055,-0.9909286358219698,2.5646399510184055
0.29021217869441585,0.6704303844096476,1.12371580673343,-0.6958674066626336,1.5721404892318955,1.733861985212576,-0.44782252797482336,2.834777843417043,-1.6859951224365923,2.1660545932115114
-0.6665569438082272,-0.011738437181413125,1.0746860543305528,1.6622620655725275,1.0154548460044346,-0.42125679388435033,-1.3853698046633935,2.224519998597622,1.5521855210043873,2.0043632734028374
0.45350230352735954,0.16848113543113025,1.5695149488663798,-2.0942232469695847,0.3955424660550637,1.5448841363532986,-1.295532762264393,-1.5089717482555187,1.150839895742798,1.6877220135665083
-0.37056075630235835,-0.34173273731818365,1.7532760391980162,-0.5912143925965307,-0.42512935325167467,2.180488719056758,-0.3381783940654337,-2.700381395729542,-1.596365254172242,2.2588768788566695
0.2075033742630793,0.6011228100041949,1.135921130015648,-0.9705184745873696,1.9200585294406851,-1.0874362946145375,1.4705091673734967,0.3292713922751527,0.4059549865054466,0.6348776866272252
0.10008746903079979,-0.716903053393047,1.4975974971056667,-2.865118546503778,0.810308620505467,2.7637977358346544,0.3398937150737882,-0.16971765459487775,-1.8305717159204087,1.6487392872524995
0.37195281967404037,0.10995735912466571,0.6247152704307442,-1.0196152043352333,1.7452530022820958,-0.28569508805917065,-1.561148638641706,-0.8213762427587712,-1.4611178732987518,-0.9825989232788648
0.4812696479036033,0.31801955392986997,1.0843584065458673,2.8535823154881172,-2.051027999298645,0.9673788908831065,-1.328477882283039,0.447696335474717,1.5262312836964478,0.7694419362361593
0.29458245498687363,0.5789961663285365,1.5618362492525244,0.020687062531190126,0.9602851697452741,-1.4800701323125396,-0.7841683603388336,0.9279727860153328,-0.6846113778231535,-0.18414131490298669
0.48873639279715947,0.5591774813667195,0.9345216415229993,-0.32027292055668655,1.7656094659382622,-1.1821807320233175,-0.6232669972506466,-1.3107733769991396,1.2771929603250758,-2.1522229294999606
-0.03583317458793725,-0.4403947447089793,0.6053835800750786,0.048008942485157746,-1.6552517644123297,-0.1927292379730252,1.5334417148294337,1.349441907634652,-0.4803878370581529,-0.14190104519179236
-0.09913609723936412,-0.2661797131644519,1.9748805716165292,-0.6834574679148724,-0.21902563332191893,-2.0276424990008493,-0.17994157099765284,0.3924557157185067,-0.21872728285048781,2.231813158601359
0.285751695200693,0.4925363691592169,1.6391518486783772,-0.912215564501142,0.4384659007023122,0.7267356719484517,-0.8899501475445195,-2.7379319202862806,-0.11157552879580268,-0.0875827210739768
-0.6279267067978888,-0.20384901370935454,1.448634847098091,2.2955482157039646,0.8808607187644379,1.7165202679591114,0.7817443819171963,-2.330379528797298,1.7137183304776444,1.6322979548062793
0.7079882753312037,-0.5404350747210425,1.2189472874635825,-1.9105737501055549,1.4282432875827138,-1.4381767862198522,-0.4425515820553403,2.471996800269093,-0.40521299149729684,1.455952587604695
-0.36733902523582723,-0.638263533092623,1.1349179191942622,-1.2270637638217483,-1.1556597033114473,-2.0006559056315805,-1.389973136522897,2.828326833458584,0.018899016549168035,1.3250654890071627
0.7292810844259702,-0.15639400840900872,1.1885363227794836,1.947718731924477,-1.03490349363588,2.1927441529794405,-1.185427185290492,-0.3064979370453318,0.15415553692208483,1.0920041479554565
0.003831534791525891,0.3994159849765348,1.7672371113194933,0.13676730305114315,0.5009666044127634,2.353287895502724,0.05849550557577743,0.08938698758282371,-1.8821926607334856,2.364944754053735
-0.3370667815028364,-0.6879445353053986,1.4507737682553619,2.7703735806889873,0.7151433870809711,-0.38100065851606146,-0.9342670882866679,-0.6580444471632196,-0.9885324393687376,0.39622578609294345
-0.40048616899598555,-0.25853320426452797,1.5931010144823,0.7504609611726458,0.27747481036272026,-1.6772768889308554,1.4760475496233796,-1.041661093643013,1.1056449742148766,0.9526212588366865
0.4151397499849907,0.3416954975799301,0.9340130882217231,-1.5503431002103882,1.4210437979553903,0.9108263031768318,-1.736118265368653,2.3416851058106274,0.9586518481723352,-0.4012364874604506
0.31785751404624685,0.21090205437146087,1.3714977286104675,1.785584285232647,0.11567215261351693,-2.688718089212677,-1.9968413236745495,2.371830506212888,-0.07205156404675539,2.0049495261278865
0.687054013250637,-0.17814258195739766,1.1001633117033591,-1.2910868382771152,1.8535223531235858,1.087954484775238,0.8902197656546882,-0.009976943110393766,-1.6952244795422664,2.1166386726513706
0.40277545164324446,-0.2397060699407791,1.2435864408889499,0.7042948244077429,-0.328077420257743,-2.4545290056146656,-1.9004565923602459,1.9695605937043585,-1.416574324758114,0.9365221575366873
-0.22631678791391133,0.7096919757343134,0.9313222395881565,-2.843875808389136,-1.8690523670103651,-1.145321445816764,0.08720161739046262,0.8352077561554889,1.7323949445488882,1.8625506166810966
-0.4082706623009444,-0.7212636378865677,1.2487720898150625,2.5751886542933495,1.0485000670378963,2.9156874099345846,0.7138196471103959,-1.3305537262207479,1.3155208216175809,0.7725863155646877
0.2034404918895935,-0.7681024785305562,0.9261541074058063,0.08428985349606277,-2.027376664582001,-0.8865306276550924,-0.7671632015147909,2.7063885965242345,1.881257366750991,2.570493192867772
0.4719962798752403,0.4709902891008171,1.5432987438088728,-0.7708761813405105,0.583526831073339,0.0734735080825275,-0.855215864540879,0.05830971109485006,-0.2432534172700509,1.6255287188218897
0.7656207307644346,-0.3268984378517046,1.3092933037292926,-1.630648355945294,1.5293370102748702,0.7707448567449808,0.6813516741754757,-1.287702162934468,0.685863921764509,1.5995860251566945
0.7706026376545103,-0.27138539563726966,1.0571434329819984,1.4084655580572742,-1.6316207293582639,0.6272129627588061,-0.15168714417752405,1.6483662532201664,1.8018718790002404,1.2047565910138265
-0.4418949847651692,-0.08364796418014622,1.7200657689971366,-1.3768007869324577,-1.1069628018020345,-0.06355818912836053,-1.003571642955806,1.8677722406588857,1.280608278096103,-0.5540856743792428
0.39685484885721845,0.11504451831905507,1.2721809106007025,-1.039850210745805,0.3315541817421792,0.04511640019649432,-1.8965140137024958,-1.432536960045121,1.956213821431625,-2.160541273812327
0.20896289782672386,-0.39466909291538355,1.64511178326955,2.567830727582168,0.26675571485044625,1.6355580888607109,-1.3478170429310548,-2.421401625768991,1.7874948220769054,2.962111315181341
-0.2594136682313239,-0.19129526352786388,1.9046898250317357,-1.9073817859367683,-0.012342913156638158,-2.2450498596580735,-0.7200081661655306,-2.823597818129447,0.4230499310813629,1.2136841358149817
0.8270849955836954,0.036294561709782784,0.9762760683491795,-1.7435274527780964,1.759868979914009,1.8376169998893999,-0.6332496735207382,-2.453934219794115,0.9413737050636235,-1.6752019422902056
0.4982641158576082,-0.17011900103959177,1.3982321807608897,-2.3737891557345026,1.5159825453774545,-0.9812312783653139,1.3951121974516978,1.047588977555172,-1.891037994870109,1.1828766216890263
0.19511230363015963,0.06531252682002579,1.8340519788613896,0.8331070609944371,-0.21053425579059604,2.1859568242012863,0.5010347775981012,2.344947458575381,1.9016444971199773,0.8682570034564705
-0.28543092841992357,0.16059734783366084,1.5497731795834115,-1.6600533161612492,-1.5315060676302759,-2.7375877996269407,1.7190428091209484,0.04705497438589079,-0.38026016904567084,1.2217831750940005
-0.3997337187303842,0.11619583919804244,1.6904127167318954,-0.9392975522226352,-0.36848171060642465,1.3664764953802737,-1.123544238855476,1.8991198671386882,1.3944063471018802,-2.88855804079972
0.6403808087344577,-0.3391941668111598,1.5613034407934334,-1.8930209326029173,0.59278905968818,-0.218487747505006,-0.7687226993325473,-2.4000414272309842,-0.021843511041214292,1.0489274806935813
-0.6295271261294415,0.4033277323718687,0.8177500683603499,1.2925494169593876,2.0091437151869806,-1.4950806410378121,-0.6412582380541048,1.4048666434333676,-0.9485905789203397,1.6551928406890952
0.10905603954483933,0.28043436050049153,1.4400721348875496,-1.3983646184005936,1.0475886565909454,2.0115486883197025,-2.0196132640039353,2.3826873531961428,1.8538498886156427,0.9038157099856758
0.5652189798293332,-0.20971670124408284,1.3759330082914774,1.6838707173396092,-1.7551880188917968,-2.7725795242233904,1.3901567982643201,1.4372859701484537,-1.2953357230961589,-0.19716291454018098
0.3182246700504145,0.25766724188225515,1.8616898550790932,2.511655689383679,-0.5374814968656809,2.087240717911222,-0.04118115930826516,2.311273200355361,-0.8882618125145887,1.5684515971407014
-0.017350281750394145,0.058901256733827234,1.788162046622105,-2.017794948458842,0.40386270957644443,-0.09869525132003742,1.2077637238950767,0.8663810851137672,1.904427548540351,0.7190494864622603
0.1826315035939712,0.24035290503078566,1.832351915859135,0.42237592777543576,0.5419426361437529,1.060053631584711,0.7945347488541756,-0.8978985838854325,-0.7559056322063185,0.5291719294197321
0.1584390662774796,0.28560257644299003,1.7747898430341889,-2.8980913600818132,0.030492966428733226,2.6551552809683288,-1.0464682316421456,1.369631206242644,-0.9304616337681173,1.3733188180123173
-0.24553868849575294,-0.6104206745159849,1.3241686555663397,-2.732185132173489,0.9669081353372322,-1.4042089663744788,-1.3363343034011803,-0.23820711430378516,0.9050649663437413,0.5514046554075334
0.15353123517474115,-0.23505471383744694,1.7467005736437855,-0.024871322667753493,0.3573838964872542,-2.6531855472090116,-1.1704535875813145,2.5015952977199842,-1.1705620234743588,1.9142580910017135
-0.49818062500704524,0.010722767088283083,0.9679572859063866,2.163168482122035,1.0719634646837943,-0.748166336909668,-1.9181609343987427,-1.7816331613778125,0.4222135268662779,0.4661663322060585
0.7888129943461277,-0.20636944528242282,1.3442582059256447,1.199019913314809,-1.549135811981162,2.5516570675163064,0.7365494287414802,-0.0601539818787975,0.8608675756246327,1.1410058473901326
0.13233259750070486,-0.5066122307861369,1.8325935978865981,0.02501267195818535,-0.46521270523490554,-2.378102807074062,-0.20553039903479786,-2.680264151493571,-0.860493438275739,-2.6405344639302633
0.3563929394190361,-0.13428881513886184,1.3708932486661516,0.34728624417004417,-1.3929914029828259,2.4013608242691666,1.9585774705258272,1.866210739456092,1.4555055550878695,-1.206309536388997
0.05602543990149418,0.22799818859240648,1.3813824957332093,2.8453897858203727,0.25967815938001104,-2.922518614161661,-2.0058062931873555,-0.6287538820696139,1.501800600942988,-0.2005825742358125
0.02465111263836922,0.03965232765720996,1.9984492670481726,-0.9381203305359602,0.0549939341385417,1.0920915720455286,-0.06350446433965029,0.16395561916964096,0.41530194297919376,2.011727452764054
0.28898360316700084,-0.05214972261543757,1.876692106081313,2.1352879950918404,0.00572998566966465,-0.7541428355401587,0.771329889713317,-1.011903866849741,0.9378490307364409,-1.3069386720675251
-0.21024426657467638,-0.4443610378118832,1.4051543756166873,2.2940638986442017,0.13094910402272042,-2.686849005192492,1.5605808167907895,2.8296783444744427,1.494229314944536,-0.13036110396393585
0.06527277598812477,-0.6089687455632734,1.362109255272905,-2.420362242954525,0.6887302903193757,1.967684389174242,1.5210795962566857,2.284314168752817,-1.8928899183085663,-1.1064547685759036
0.47545033461821556,-0.6229205126387566,1.4082921068264047,0.5780513756107046,-1.1852543298323366,1.383287951058216,0.01865526811340068,0.18199550139781273,-1.8329803777685572,-2.4371584307578953
-0.0008307335576343,0.040108311589967555,1.6315213251758214,-1.2325187707780172,1.0862052694829232,-0.21159913544666376,1.8882406079578744,-1.7048233359776104,0.1336481449341953,0.11347612084486824
-0.6302154680408047,0.3314601293062001,1.5949691567322972,-1.9476701813794857,-1.1523763271135223,-2.4576949195036866,0.4016930202241742,-2.800754605113935,0.06086854831078625,-1.4571199343423884
0.13989825223016705,0.24206068194765024,1.4761504172236914,0.7164275698279563,0.9986929071938944,0.7839835177136822,1.6891335594081371,-2.5879332242385096,1.7010184004698847,-1.3643706496097574
-0.1432806065327994,-0.23481131741399805,1.8468304373520226,0.5175139211614019,-0.0020422820449907952,-1.515023378847557,0.5461608958618682,1.2676156003818453,-1.7515247962746645,1.1429708486094632
-0.4913794381603445,0.3243106909322713,0.539521588007078,-1.8532709897115767,-2.0583740719196117,-0.7491573330259675,0.7409643190835746,-2.1424480139540325,-0.05215102331252952,1.413192540710504
0.20441177534902136,0.03718776156522264,1.7369027655954739,0.5607370822195534,-0.6718777400372344,2.7600676099426056,1.2756862232167605,-1.1178331848736938,-1.2267966086967124,-0.5830629127758193
-0.23130936464117216,0.141788389596718,1.5857395891000916,2.252016481920521,0.8606780484919718,-2.264515668033793,-1.8165383559628283,-2.186187308895232,1.1169275145921929,1.844045212959737
0.36018526876270585,0.441765493830653,1.1698535005226853,1.7941011510556275,-0.8397531875704445,-2.136826879971239,-1.6765555501309288,-2.6380423143632465,0.1875591586784071,-2.4216811434132928
0.5860547187413826,-0.6585309339309664,1.0258684568353458,-2.1301637115861976,1.6729495246686055,1.474690639627076,0.3298144919320998,-2.8331795804483084,0.9334094359341956,2.584191852066198
0.5799669890506886,-0.0011073689717321644,1.3600533689752836,1.80660158513555,-0.48231679218732104,2.743717100440922,-1.4949531009625892,-1.0809202197165297,-1.5573595038358257,0.7723546445254525
0.42707219971545546,-0.008464557106055835,1.354044364521333,2.744934870120584,0.08699615894988133,-1.0128809100435119,1.9764323265976476,2.0651352525325266,0.14407547751140415,2.2604589655437235
0.27863477465779635,0.5048738069813046,1.2893412542208624,-0.10131248178885865,0.4951243966230101,-0.45607108056179824,-1.5165782786650261,2.4125614205256256,-0.20848703956674375,0.6997463931085921
0.2868244766955249,0.7732439347298254,1.205546900435865,2.8514874000238124,-1.312041130314598,-0.6546408925701757,0.3030159384604634,-1.3359926598034961,0.6588764108205116,-0.9669270896271991
-0.3366809546592515,-0.528466952182002,1.6969745075385254,2.7279406392133203,0.45581204629007654,2.631885726225972,0.7878461419004359,-0.39786706432289654,0.8675385892817316,-0.2023395242604682
-0.6799976965863662,0.41699336876835197,1.3641862783144645,-2.0377690451854784,-1.2533334128507088,1.0841277220258756,-0.25488973491516576,-1.2496146181206802,-0.9826807765606365,-0.12283329401338783
0.6090358883443566,-0.17591364890368572,1.3883706422029802,-0.9468363999632372,1.062036793501587,-1.681187336446024,-1.4937794309971908,-0.25775314071957434,-0.6503790854218807,0.9187926415957555
0.5242347674746325,-0.028888000662443795,0.5689090334123482,-1.2773001956987802,1.785501048428611,2.815901185896488,1.170722529579511,-1.115538211070823,0.13771100918645018,-0.5270526954943389
-0.08392778243390053,-0.7794871572927854,1.3392044102736755,-0.392725673843346,-1.7350207208162156,2.4860344261445566,1.0796205085330084,-1.0912917319236435,0.7383213168258265,2.4068994653417675
-0.13387789736739522,0.5960100950710531,1.6798773347571223,-2.63606534130505,-0.7494619369845481,-1.2983607334133778,0.5149514943346105,2.592740027213148,-0.43072861339076285,1.3049784991442963
0.4216154585972058,-0.0045215343904467745,1.378126119526487,-0.03519818115352713,0.718577962055408,-1.936617627556255,-1.999941632725977,-0.9378675148851734,-0.43798615754041736,-1.0512926076195
-0.5182463799368191,0.4767232759834111,0.94383336721877,0.2530695573841957,1.4662487566292723,0.9946577473916411,-1.1146499503759615,-2.6749381233924554,-0.19141306980635409,-2.5458928948734108
-0.24627123135248152,0.6549646490341932,1.4928691174594695,0.3523585814052499,0.7018627468977621,-0.08629198250343917,-0.7447997085795768,1.7533879171806848,0.19877534513905415,-0.801589807294059
-0.13735184970831854,-0.43723904805705477,1.5574890028049073,2.125551753890314,1.3380007669280753,2.657806378575852,-1.6738184541851662,-2.170790940897372,1.0886726379897729,-0.30436625622280866
0.30630987546721145,-0.10312475265215178,1.8748437697254272,-2.356460041032651,0.7082845015667631,2.6213538352851073,-0.8188320687608548,2.2284437900712866,-0.06255481088969272,1.733208051200266
0.1667555571623387,0.6670672370200117,1.442768119516901,-0.2365569241800758,1.2204217186571444,-1.8268108812485175,-0.15991345896303066,0.8506840718461581,-1.7917091277387631,-2.4364047877277972
-0.578142441998897,0.29371880888524704,1.2737968898974037,-1.6896091888606481,-0.8116480673723292,2.4764626352703805,-1.0741052262960005,-0.3545571682172155,1.261576125029836,-0.24780892859693848
0.41270009000595914,0.28020454813924606,1.6709717283771475,-0.9551113322953837,0.4542101433048318,0.23155879863341822,-0.8239829534974665,0.28094118712811555,-1.7887028155139189,-2.0741740348042477
0.1641289434384789,-0.5772627299063965,1.6949313333722267,0.5818877152069808,-0.7060882031325304,-1.4079540501162489,0.5990162168642397,0.009958285053210947,1.6664598260210202,1.9761058701214567
-0.2098889652485337,0.6607068419168868,0.8113782121826743,0.44773538836542626,1.9027503832638124,-1.7391414180074765,-0.41182661523574815,-0.9272793589446455,-1.7965585624381357,2.663513174320071
-0.5368066900415204,0.2882337748139814,1.63733256466318,0.7639917036837156,0.7740019293019831,0.9893226449072081,-0.22835315996792294,-2.8280847142746817,-1.3805062560067212,-0.40293046294983714
-0.022534789328319222,-0.22602538490214572,1.990769456215109,-0.4978303207591037,-0.17961382164322748,1.3333737758471345,0.1326013960508714,1.5491859456635901,-0.12199284053046,-0.06510218285903946
-0.5925864457448417,0.20008247907641907,0.8745402265115264,0.4812991578444805,1.8505767874016485,-1.622423769646262,1.2099785717729525,2.0114521798090688,1.19264195984351,2.529463446165878
-0.6502901870743264,-0.48840029597871326,1.0973397109183483,2.159595373373047,1.3518832791119544,0.45038823913397596,-0.49895323502556144,1.3356826452261443,-1.8150916019742573,2.0455546949107544
-0.2704291250818304,0.3416724815389952,1.1143247934434877,-1.5826722852293773,-1.020170064325601,-1.383499870541513,1.9747983480932172,-1.6966902458417608,0.9518650918177709,-2.8703316209201093
-0.4669363416247194,0.27064884821234564,0.9470620628631641,-2.888019811814735,-1.2465057426110917,0.8511183737979109,1.6847168354120132,-2.0201451918919147,0.36912372255972015,-2.0046105864904518
-0.4710634677014246,-0.1427560616706669,1.0346823377135077,2.592483822663867,1.3927278909789376,2.034683227816799,1.6882825607646912,-0.530631820193217,-1.7483449898816315,0.39494557477030456
0.4167843986341066,0.08092473304795433,0.8766075262137087,-1.9974249950725205,1.4444960766761725,-2.2059166881004013,1.7221454754535506,2.5260643614133707,1.4342021290032982,-1.0534648276656284
0.7094288822111785,-0.555951982102401,1.2007199775235102,-2.230955245126137,1.4732563282769178,2.0170815484602023,-0.20864183947865445,0.168249653948092,-0.86445469776343,0.12869195047204052
0.07096288765163525,-0.4926152357360358,1.7437300862899567,-0.4887474092140467,-0.963359006855182,2.412134419315312,1.1016816672107872,-0.3998946005112507,0.29526895349747573,0.4047178295527032
-0.40343517455506406,-0.10473745043087086,1.7308061042680536,0.7557007444013157,0.4822793327069834,-1.5164864163009393,1.0801611506826383,2.301146011071945,-1.4667855732318702,2.8587622557689776
-0.3483864992332094,-0.8359905878827476,1.0903050112115789,2.599394859890974,1.3233996234805416,0.5376561629612886,-0.6075955321080451,0.8040999509078701,-0.43740563821075873,-0.2731126421252852
0.5132012234351009,0.272108967728494,1.4712440245538339,2.1033118426340747,-0.5738124657636028,-0.1798856622185423,1.0176388305695552,-1.294916159767726,1.9428474416191115,-1.9145496081665416
-0.3895169759665887,-0.29087971073645424,1.716978674779128,2.0786496403996932,1.1317299984309335,0.13793287386317932,0.8768351816471984,1.967563182120149,1.2009592706692716,-0.22214790428471964
0.612305732684244,-0.16614567896560253,1.3150952127626718,0.8701113175062525,-0.9219932028058175,1.1906256486093239,1.0260599960303587,-0.564392077515445,-2.0036244232703186,1.9422084124013606
0.3325705785470654,-0.40458942295115047,1.6913369200766413,1.0520921136515322,-1.0116472202553801,-2.577537290662148,0.5888903506276795,-0.134108953856229,-1.6596424346014302,2.9962110031450755
0.18586565353083945,-0.7966495211600484,0.8949513758348401,-2.639997210427181,1.610855134523761,2.4807218157330087,0.5189105039518238,2.5885972271502298,1.3151347664765174,-0.7478778350546937
0.24723086941964342,0.6257477980478265,0.8416950632493158,2.2498561233035796,-1.9985182981052974,-1.3696267537051778,-1.028576082001153,-1.9879215583629024,1.006360207805582,2.0897289741980996
-0.038650768729679,-0.4282543709032994,0.7306082607239858,-2.1342933724991506,1.9389295348146942,2.3838796392329757,1.801267998803159,1.982837571618448,0.6667493798990529,-1.8657877108242042
0.7307684540181262,-0.03833293740811026,1.4742792145890193,-1.0337258594713252,1.1334438952885377,-1.7345280908252152,-0.8783759832906288,-2.497134105045403,0.028705964124978056,-0.6235144689104537
0.42847021137922464,-0.7384742200986574,0.9634720387365295,-2.207147749853731,1.8022731423450726,1.3887035105260055,0.829342145935184,-0.4256911716606506,0.8159477165865487,1.5739076785940447
0.33524698344519754,0.2677539776216863,1.387810957715226,2.0756738584624306,-1.8389497205027534,-0.2081014085256312,-1.542816196253134,2.713472557690318,-1.5700324037500544,2.4279706838212616
-0.04248006312227922,-0.4310637630332513,1.696210119822617,-1.17963787982065,-0.20826155670349333,-1.6914775437624625,-0.8599433919360375,2.9064094141674874,-1.778049444798521,0.8231071159029342
-0.4556763553476647,-0.38618633181345247,0.5704360877197464,1.8840787736727713,2.0460354005264536,-2.4701731550696175,0.9572115445796872,0.06470872972499464,1.3675129279278493,-0.00542517135971865
0.046247511508623426,0.36375823638623694,1.5666887128162272,2.144014545254349,-0.994055650816791,-1.1245471853707638,-1.5108800184707594,1.8979471034510396,1.6141669716791354,2.2574199735495086
0.2701554170751697,-0.7955817657997061,0.739106976462861,0.6139834417121524,-2.0571744095247304,1.527126534896587,-0.44330360078311326,1.8202711168304124,-0.2653465450153425,-1.7627007024725885
0.22781014801193905,-0.37606405782193175,1.7097848907354554,-0.24947179241884365,-0.5110959029964854,1.8428063961232497,1.1278617661964865,0.21477928489398623,1.8579606350218736,0.4390973913731635
0.5656233176865146,-0.6176029967918009,1.1700544910147177,-2.637632130664116,1.2682071742357155,-1.9586144734131783,0.6788708707003708,1.5827893578819228,1.2085910730048535,0.1413697723335101
0.7396885651326296,0.1074022836752255,1.2753303031437213,-1.1122519544197096,1.2289226336828851,2.3588803754066263,0.441812412332113,-1.075956387310319,-1.8445582927656021,-2.6896404624344936
0.5426216912503489,0.07413068276250225,1.166379007253049,2.5012292789324992,-0.6823960494742165,2.240187690110529,-1.7501841113077226,0.24349999346144724,0.3140154142510667,-1.3452157472649031
0.3164691586107987,0.5906327191389164,1.1860664720913265,-0.7468137677163988,1.9600244556392008,-0.3563059791102088,1.0687353704696019,-1.2990181906444436,-1.289527112796796,2.8940200950549975
0.6038877252598449,0.006453911520353274,0.8414162110196358,-1.8255133482037247,1.4589726361833009,-2.6248614012079736,1.0835944875569958,0.20514589717138687,-1.5852819846121806,-2.3610627125959516
-0.6993536624165396,-0.4632922907140707,1.0372515311723873,1.8743131165046187,1.303538321216311,0.6909736952359098,-0.8797110013843163,-2.384589373158909,0.6797723092149983,-0.33302589425100804
-0.3629047909014495,-0.66288963793049,1.1349085687724958,-0.8180731590387427,-1.167131392965939,-2.3501915482447653,-1.1451311457432083,0.46474626064853686,-1.8633635982773609,-1.7832171041746891
0.83996056459683,0.007791782906864465,1.420792269970709,-1.4901783303835625,1.294464764284657,0.3240448669853957,0.12813775755606205,-1.0223421971574302,-0.18262372253615733,-1.1654948471134259
-0.5941788166417915,0.5157533136307785,1.247137407951978,-2.2348332414122485,-1.3784919592432392,0.5664499212702307,-0.10501378538269246,1.8011834355225367,1.4709711206388154,-1.334752215178062
0.8088543052067166,-0.3137261735184314,1.2282436481079146,-1.8065972691371042,1.1147153999329285,-0.2149238687938193,-0.6208406471624739,1.0826546585122006,-0.1245603877330752,0.11651558948217522
-0.35728356479688705,-0.007582655811964642,1.6389566010135328,-0.9439255314072112,0.17107044678562655,-0.42557557226413856,1.4387304431226462,-1.5760300728532373,-1.2721476737292725,-0.20610337088562947
-0.2506096417472514,-0.052234247294526956,1.549490906171114,-1.8733983200850093,-1.5667172589206482,-0.1480868288908299,-1.939428200480597,2.14007254766766,-0.1660048691584617,0.05368637411506905
0.5021507201180659,0.23562950543351713,1.5969355413690074,1.4246415024209527,-0.7060654368600332,1.4964854200218292,0.7905505696501356,-0.05143414807071878,-1.2350257880871287,-1.3064506570304066
0.1279965222380524,-0.38832986281072757,1.4319564998477714,0.9076756434272064,0.30061130451342644,-0.482814047356376,2.0365909678867826,2.2567939726981883,-0.24139643785667442,1.4751405625124243
-0.40606439852694304,-0.000316367135993173,1.3843978988283614,-0.6771755792836629,-0.30519801360865206,-1.438252148932345,1.8249557716395017,1.5742831270832673,-1.9139179740565724,-1.6790889189021294
-0.7150200512671804,-0.5000396419255362,1.4221173455409193,-1.0269114918708957,-1.217408356646331,1.9152030537186318,0.02036741091597305,2.3510921336830966,0.08067825412080154,1.7257442899894788
-0.4117031152626596,-0.31962130718368753,1.7791058894312948,2.051004694103382,0.568682353488438,-2.3854406912223904,-0.02256005834555541,-0.0034762834678265797,-1.4992763910792615,-1.495719127472319
-0.2155451830460337,-0.03506217332775786,1.9287231317544284,-1.4853388522558733,0.08510998588466245,-0.060839144242560206,0.7196131230508436,-2.7162398759468975,-0.5010281258071227,2.9803120160183494
0.09081225101341425,0.461333533307696,0.7348983405544209,-0.22123353355801667,1.5014755100032966,-0.024973580836550102,-1.221129918615944,-2.7076391410304326,-1.4574414679366958,-2.3395839952052224
0.29209098071725675,0.2541223450136486,1.8810407343353284,2.750749358376025,-0.6189265760869371,0.8064429987345503,-0.4479840918835294,-1.0290120081658307,-0.2114769870047859,0.5823566064506913
0.6113160443870281,-0.6599276695391653,1.0156356856612572,0.7003513044109728,-1.4114561801443708,0.2502781768559923,0.5381214814420838,-1.2194293551513167,0.2002951182616095,-2.723109893251773
0.7025146516163349,0.1479613806782369,1.4289492246355076,1.9591534721206378,-1.0990983306358146,1.5894027345822752,-0.054464713006611376,0.6056687929096554,1.8857850565456666,0.6575659231241056
-0.08695342340392337,0.07604807754076373,1.985423166206771,-0.723157624583084,-0.01278768071054781,-1.8682598337904297,0.3272252218751803,-0.9708894702221602,-0.03710890525129962,1.8743131572631415
0.3956698269218889,0.3102457582155948,0.8761340915520378,2.2865816913855697,-1.3021095307076735,-0.05769293839579159,1.3057744431252245,0.48434697503830026,-2.056139869976895,2.3527524669980724
-0.6780944589142516,-0.6180523086118762,1.1590111659022333,-0.728240819401218,-1.385712767975732,2.338051284986071,-0.3676179991398514,1.2695831467860512,-0.09839855623794103,-1.6789540907722187
0.33623784683579905,0.335059545951308,0.7378126798395683,-0.3102597454517513,1.4345254601338135,2.659459349999413,1.5532445367646446,0.9844648036466208,-0.31665351301872335,-1.9377152329498302
0.33112838670145467,0.5451087435034043,1.5745677377082763,2.599335301570131,-0.8993846494899027,1.0494135198160142,-0.05069525641570927,-0.5172474202045674,-1.5851258094597476,-1.2081702905617662
0.274586187647146,0.7153451070929739,1.188513111387043,-0.32890816980681237,1.5812376180162686,0.42269443781065696,0.019018545473678206,-0.3036876622474396,-1.648827933456208,-0.7732988027837195
-0.15607607952551134,-0.5441728296475404,1.4382302488852319,-0.8581471431610344,-1.480924812324313,-0.6744909640773304,-1.6332423412472572,-2.7200769869886408,1.690203040998116,0.10507956066649715
-0.41760275341841685,-0.2200833426356123,1.2249563315411345,-0.4148102992713074,-0.5692247027009198,2.256550377527471,-1.765780816687645,-0.452133419454408,1.5960015231935771,1.9828410296398213
0.20614524636376474,0.781920661667475,1.0551938270982377,-0.27458849755309567,1.5609411374798463,1.8422847146597898,0.03757402713215985,1.9294912232355768,-1.1182788840463451,1.4797432869195775
0.4403325960881378,0.717460257050882,0.943915778582267,-0.5315607333821801,1.7401458557564355,-1.959905630085703,0.03808157144294144,-1.9561301063346508,-0.13254461223543856,0.718081549478403
0.24153061159540612,-0.7160190361536669,0.7504187801478831,0.30982373812762987,-1.9991814114652973,1.022594078881315,0.3034786637401621,0.19049974145754645,1.9728353965196437,0.9198180639861739
-0.36148785817442153,0.3762344487581149,1.5924176871533249,-2.8350952747940004,-1.3329021154376641,2.5025169961870923,1.002130621054126,0.5464033059389037,-0.9318189165647113,0.38923803385625266
-0.24560099497713464,-0.3926267970913579,1.3420333807278346,-0.14967138880344377,-1.8853022071047956,0.7213149076131922,-1.9622529571428204,-1.8233111444730998,1.5429815828317994,1.037102468933869
-0.13131481468125927,-0.8002572102013177,1.462190635610264,0.12516252671629502,-1.1699553995094008,1.203251794165633,-0.40546801613812855,-2.4550020232057466,-0.9904853777719531,-1.6949304234343476
0.5211960766851461,0.15228932560287906,1.6896466197859303,2.1885876143602556,-0.6798879310754304,1.4443607463346129,-0.41534871650133987,1.9812097547786762,1.6711992175030006,-0.0663653770390682
0.2072889461263693,0.6654041602528348,1.5590315434713569,0.02196133615380136,1.1185886651257166,-1.9426957972377528,-0.5387125845614249,-2.335861713845644,0.10226751541263601,-2.5165853864007754
-0.17825701832788104,-0.014271817325962027,0.6990373946552478,1.6137289552483423,1.659898611989199,2.8998498925530822,1.9536946637067212,0.849239641930521,-1.030335014629281,-1.334162655477931
-0.25089310140854154,-0.5438109864180314,1.2827508978811175,1.9939109080460242,1.4667667667697755,-1.3856161762088053,1.3894391461642455,1.0001540287284874,-2.036764930058719,2.534127242754012
-0.029795079196588903,-0.0608193251132147,1.9172635074386717,0.3895562317860293,0.1851099732680037,2.716747104755013,-0.1893414473788375,0.4051071797054302,1.6356649118215536,0.25685672524795455
0.5052548237945218,-0.564857429928558,1.4743074970744712,-2.462050699958093,1.4249249856460553,-0.40449195535886684,0.8083108928009151,2.636611639388558,-1.2290426143077342,-0.022383013382604844
0.4809689666446093,-0.04143154699743341,1.2737530287950354,2.6334717689523512,-0.6238672734352575,-1.407366141766173,1.7720654673569523,-2.6446753786249975,0.9458093937608143,0.6201138355697586
-0.09064570602738682,-0.08930130412636529,1.911529457136597,2.128454619894335,0.4221888128158864,-0.052042094887477575,0.7718813247198777,2.7921796555915352,-1.349053380324581,1.4919813893591907
0.337747819352922,-0.7425670685374849,0.9238758079890487,0.1737913126630879,-1.4084881348981346,-2.6195629321428027,-0.8339322787463543,0.6924801712133477,0.6992465800516579,-2.5256452312956172
-0.5522944792089813,-0.09141598016227312,1.3861409578891049,-0.7474091010584223,-1.5331578791873652,-2.0715709728514433,1.6599260746025877,-2.223741281062244,-0.8351832834540711,0.320659141763334
-0.5362746701457723,0.2807213038149543,0.6030813142855456,1.206554233421484,2.0523367219112423,-0.9979562925546208,-0.5615670757650686,-1.122959405868041,-1.4812192509365456,-1.5895937328009744
0.8224398778302301,-0.12528113550461012,1.1653055425634642,1.2134296913105689,-1.2555631217656382,-2.4864534275336467,-0.6249271475220612,-2.004098338345387,-0.8195883561047821,-0.6912506799188307
-0.04681064107603528,-0.1657385063149197,1.7158467864040265,0.29517421126536725,0.5954094759699569,-0.042410730673165364,1.389858629048439,2.25559480236393,1.3070876098553814,2.086612975520946
-0.6083698071533095,-0.2823211036131253,1.5756276648735723,-1.2799297051217355,-1.0736223778141532,-0.5273459362936301,-0.08470655898151902,0.10843059682558787,1.8090947601837577,-2.472122080022101
0.7063314661869251,-0.17666049103185436,1.136795670454297,-2.312801114324444,1.1449779982297774,-2.0086705222245316,1.2101243386371086,2.065063630989201,0.6279269460553936,2.6144768613171245
0.30094869659729406,0.41463220628908815,0.9407027330754795,0.2567966534753747,1.559523400682688,2.1282046032934736,1.6668321316339325,1.6667379566726912,1.031261050193363,2.1897285754279596
-0.590940511724484,-0.19698158766798857,0.7553204140916212,-1.840380063590094,-1.5783672714295423,-2.4144394696979123,-1.2601984620126414,-0.28435284531203964,0.43995830327779073,-3.0051304562618775
0.07963568201650073,-0.7439754025856241,1.0557680309915576,0.7848486275836475,-1.3404605140706074,1.9399981384587703,-1.3330506414140815,-2.524843855491733,-0.19570524438693937,-2.0323080536507847
0.0004793730065565799,-0.23709024244864524,1.800211303784599,1.2402799777754416,0.3874106036325755,-0.3746380507465754,1.231096179270958,0.6417192451690283,1.5115756408288261,-2.311613096603055
-0.4063189948660524,0.2889137208483375,1.4405371349422271,1.4742189314452037,1.6794706236824273,-2.4585677329052014,-1.6351761682187222,-2.5796954127699294,0.14038444703221664,2.500751191801997
-0.2566865983132903,-0.6045386816935915,1.389623409503523,-2.7966684100328414,1.3245118583637474,1.3065402058545694,1.4650018373641118,1.1451800651223576,0.6961720399771036,0.7315275358149749
0.16690824192380566,-0.45810859982524665,1.7279536775201896,-0.49906252807481755,-0.1965120492829986,1.3335183925163325,0.9452113367579109,-1.2749254926655338,-1.065673796400531,2.9753675146116376
0.27864393975941537,0.2636923899563083,1.3220042965107954,0.35743611395019403,0.9572587870646054,1.4723910357860128,1.7278031881099603,2.844987671577367,1.6724277561127554,2.110550568081886
-0.4190300084143392,0.5123108056982388,1.331423060856401,-2.1781007826616223,-0.9942545792624513,2.452610443949538,-0.6912168843818409,2.2669660341653777,-1.8690349482561057,-1.6199707299506139
-0.15590157366306,-0.7429859585531166,1.0661723659588136,2.3538582654155866,1.3027981378046372,1.2145496444357788,-1.173589433269811,2.0717493788321018,-0.89469737521221,0.14870095646332748
-0.5051171111280519,-0.14067156322502575,1.118007344482475,0.9263706917616767,0.8723476433134367,-2.0879313732397886,2.0265127239086738,0.06889542025612672,0.8200008371542098,-1.7856032976004614
0.5067249813865216,0.39714538048168363,1.1875478495247875,2.489293518357496,-0.8006483393583945,-0.29677139421044796,1.1521571344891743,-0.09323918891713845,-1.132716599242373,-1.6131632865934007
0.12958781970582728,0.38512589887325177,1.2491777502403927,-2.582739782353476,-1.9793306642200272,0.8237399270930448,-1.9977002620783055,-1.7461529575115737,-0.6808696648396935,-1.7703486616330395
0.16194913430234265,0.28895132948825764,1.3621233768809897,2.2464203618863254,0.016920047355506895,-2.487770794236591,-1.9689215329607226,-1.368627587093878,1.4536141831531446,0.2468575939777793
0.380637376170063,-0.03153144809049768,1.8113566054419221,0.19798860908960947,-0.06500555087812021,1.4572389565770947,0.869539151861447,-2.2525735529327644,0.52805695246726,1.1023786462059344
-0.3698706493103132,-0.8520545368149471,1.117944940539071,2.7265139661973294,1.3521890188638772,-0.1268164457206602,-0.3863534809858409,1.1858410659949201,0.11128993526260622,0.847007690589741
-0.2423779859635215,0.4230823884571352,1.196900167227884,1.3293471227022011,1.760517681060222,-2.0394965942221632,-1.920469923915837,2.4617016638940066,1.153691862633143,2.735116541180281
-0.5224436092924805,0.18409280389200855,1.7325869019723157,-1.8238001221103144,-0.4422718443231408,2.7078288333265443,-0.4900737510006803,-2.841157491256316,-0.6982742159525996,0.0680234707239924
0.6178469350553518,-0.10580992794008898,1.567743396727686,2.145741240922154,-0.9208483697353058,1.4567266061903115,-1.1212505822152798,0.4438921617409446,-0.8013310839411929,0.9402708021998638
0.22862054967090348,0.648075395270402,0.8473521418569532,2.286468135978198,-1.8560945554290569,1.5052679498174473,0.9260523633070981,1.9857408281240683,0.735439361252682,-0.042158166181030854
0.019756507440759935,0.5022259747743467,1.4997704120708986,2.4973088790881097,-0.31806948712963345,-2.4694734540309273,-1.2801680457670401,-2.169006890648518,-0.9627879118551004,1.5742318704161575
0.8170723168395948,0.006876168166207591,1.3362615352363896,1.9132874931811803,-1.1755899900953821,1.8080296385610404,-0.6230241138545942,2.3281552098414857,0.7537318746739254,0.020587352627523536
-0.05356572828975497,0.32322752120800136,1.727268905230531,2.8450581680391607,0.06069284551015475,0.3583165243828228,1.3187754021586544,2.8880664002939986,-1.0388820309012916,0.9560262157098549
-0.379074403943214,-0.7488195658235496,1.2625927635390128,-0.5467924503403299,-1.0071693958764656,0.03264019223502146,0.5855931107777379,0.44252739824773357,-1.0387537000538285,1.999551873525101
0.18008760776881463,-0.535721671082389,1.3652549316525986,1.3035283653273226,-0.3551008706289205,1.9154337650673523,-1.694742394443582,1.1547662062476127,0.5822821338669582,1.5676721914811682
0.054186959603678364,-0.7185683278439301,0.9965786930894288,-0.4498297330966241,-1.7690519451891185,-1.3552935194844404,-1.1784923863076437,-1.9713926974961686,1.9264255286301704,2.6353573086715696
0.2737474944167479,0.08420475755342344,1.7989903140661483,-2.7210811386395877,-0.47884865712443214,0.8516923319562388,-1.1310373557606654,-1.3739557643191795,0.40047373427868704,-1.1887080054454395
0.33363189256545145,0.31002138817112035,0.8434584198401526,1.2571322709090942,-2.0528736372933203,1.2817315313856983,1.813460491910833,-1.8087030421843373,-0.09848350083628787,-1.156741292507217
0.2503581775631597,0.6271582670207074,1.5433029028296272,-0.7472887187000139,0.7965510480599245,-2.1237551707247473,0.7375618177102745,-1.0530849134482954,0.17290525643947996,0.14405034559471774
-0.5133209954072571,-0.3190294244634119,1.6334532048421988,2.182982490943034,1.2734168068690637,0.08816227489395789,1.0012638857846472,-0.6775473572870423,1.1012568790054154,-0.8639579021050716
-0.8243587470726289,-0.16396444503865618,1.2581786903317485,-1.296206998304332,-1.1781411590848583,2.4719895609702145,-0.3462514280331632,-2.8115784478850987,-0.9640878191184079,-0.13843463651040144
-0.12704613467428297,0.7442886017394411,1.307659402018094,0.4407331143992761,1.6595765956806892,-2.452343025450484,-0.8280141709142972,-0.3945667741912322,-0.13039216709504609,2.653973113618885
0.5352173874138849,0.1094545825015261,0.9832466194735248,1.071482605738026,-1.6876458071403946,-1.970707640267452,-1.588517072029922,1.4796967950335431,1.6160164237125532,2.1616476453848894
-0.18382323160005481,-0.46186310048836254,1.8026425882201325,2.8787310881767776,0.5787007418970043,-2.9135912246573876,0.05793927353079731,0.9816924170615917,1.5512807326186682,2.629049727533465
-0.35733850934169775,-0.38013943048855486,1.2297927071060135,-1.881246940728896,-1.4556236665747981,1.6652582983243147,1.9210472209246063,1.3672344098304525,-0.7004646115936559,0.3741748678092103
0.4097196651623374,-0.11683504179762497,1.6742622466574877,1.3538533987402972,-1.2016659755095396,-0.26276134421135255,-1.208654759875572,1.9267331486707007,1.4962629216577517,1.4253163303575467
-0.34257144574080256,-0.5432982459949274,1.7208793204584787,-0.4795367176264378,-1.0987973016101442,0.2848714423590213,-0.6268465162465837,-1.0637461204956953,0.049804785300394006,2.307592246553431
-0.27990750206842707,-0.3109338105397179,1.7440235998708395,-1.5433207181426547,-0.6115508187938021,2.3104702894708997,0.8619091342696676,-1.8543185252709709,-1.8233739170525278,-1.2952076222681819
0.5442433587275874,-0.2701714511302379,1.5696771561140677,1.9489279146651257,-0.8879759581268443,-1.6614337734495028,1.0642639610027196,2.029000524293387,0.7915824987344413,-0.18615689512513622
0.18805237962590451,0.1482942574024026,1.9096777845112527,2.647470849862262,-0.6631398760564122,-2.856682305607149,0.7375128336376373,-2.8172161672627403,-0.4534234664060415,-2.103823008138487
-0.05564476794331687,0.37332818180055877,1.8529426718067443,0.3526795996622818,0.5181553204446057,1.908680949257469,0.34059045277685307,0.5337713929743586,1.1123415046255172,-2.055659646571504
0.03575776936184254,-0.10895388966968836,1.5437652511861504,2.412229479146935,1.0223567696420197,0.04127771349445197,2.0464552727744216,1.4936220847950898,1.5961788726385442,-0.06909612858545033
-0.5817580649793471,-0.08937422769565706,1.3780550033006873,-0.6480966469414104,-0.6496947766708174,-1.3754003307738374,1.5093498677486972,1.5088621647682596,-0.737006804584893,-1.509480820259141
0.35920021019238274,-0.3648893222490917,1.7591815444331422,0.6064687368011961,-0.43748733843066256,0.265308669432339,0.5205046119893932,-1.1417455530371432,1.562101557568636,2.589446380980831
0.10394624154896769,0.3109989917618581,1.7953692007817792,1.528245403901972,-0.3940922921866443,2.017220337643995,0.9673051760990656,0.21145462664329218,-0.3632045492519165,0.8759044592593197
0.7538708579662395,-0.31138218047247046,1.4130474797750492,-2.228139523786708,1.297097683363289,-1.372373354896142,0.5779976535365199,-1.8327004523114592,0.4719381176145645,2.3807261776538815
-0.3288742113633251,0.23332836111747346,1.7330960342753263,0.6526369339399216,0.006228405825404515,0.27033197823598076,-1.1069788913489271,-1.2721262092588104,0.34835715911090226,1.5784355039524631
-0.23049781180665088,-0.3461659133948105,1.439768827197606,-2.403361212404029,0.42391052380164673,1.3921314250457377,1.6104756256810275,-0.13256772460184418,-1.806778345902281,-2.9143682319033664
0.3566496815689165,0.19313696963759697,0.889134000445236,1.7674413897748944,-1.245440321529043,0.3454939988491659,2.036459280455059,2.542110266013704,-1.7565737789492495,1.7068602291850552
0.5294066823527492,-0.43329928787498206,1.3241098777220626,0.17746611704010684,-1.409501878008922,-1.3108536086931117,-1.4107241503553758,-1.3949356934921078,-0.1844945914952003,1.0903349944635612
-0.3056592120421975,0.5494423756367381,1.4570974056326695,-2.6475994395812066,-1.599140644908311,-0.05594316080653172,-0.8351541895407324,-2.639913861547366,-1.1496100144993395,-1.3813657415012022
0.07229482225787504,-0.4732213487459729,1.6694877798861163,1.8743835624469747,0.37734139941539047,1.9998871240407419,-1.2471710022669695,-0.9346741006719868,0.6264222900293195,-1.0081911985036625
0.7169947563982868,-0.3167046501889403,1.531707930018835,1.1468717344351744,-1.103772609178278,-1.9701389538807148,-0.15984753852524336,2.2075780525775666,0.8869113176903918,-0.4284060477907099
0.25819572370180605,-0.05903272408822302,1.6631516069880865,-0.7903028344212548,-0.3020871293987586,2.758578698344795,1.2679760542289569,2.452102929774868,1.8327801814930709,-2.864572172307893
-0.7503612251875706,0.2284139216789271,1.027592372149062,1.2885450961366858,1.7784183506710898,0.8444766789046594,0.4517173549058717,0.3066015933737005,1.7756579926373837,2.913630814422778
-0.5438738270465792,-0.6321740912296722,1.5009981173850822,2.365615508047935,1.0447860698501805,-0.2070836452997078,-0.18813194539695544,2.351783396610306,0.5868917233585456,2.1092331476654667
0.5708122725295559,-0.29985608415711473,0.7354674015577285,-1.312454075401641,1.8919363424501454,-1.1941548928325116,-1.2698834236442633,-1.05549444348956,-0.6877306314361424,-1.4755114695756528
-0.5500827862867885,0.4102795141065943,1.5525063929869412,0.4696067316506638,0.79402234037329,1.0688018627783218,-0.7191442868697444,1.3289520525072755,0.09254040850905021,1.974423539346199
-0.06158633569470001,0.05002415255195476,1.815048993319281,-2.2775602019189884,-0.8640191445128254,0.0842875432558321,-1.3170382863691898,-2.190663870401987,0.04676872414876865,-2.764422231660238
0.6492976045697136,-0.42984212114861964,1.140095651666637,-2.5207417058260675,1.3093434262826826,-2.0585346790961485,0.7498149863530745,0.16234735335224748,-1.3707642717626722,2.730470064030524
0.2513611562449033,0.19087280314116675,1.4701505610644487,-0.16990154671338953,-0.09894480388328453,-0.37355193881765425,-1.8031367032448662,1.598051374214164,-1.8373868450022077,-0.1522496697367175
0.42745017479858594,0.18823955002193515,1.2044021653070334,-0.10176228638102547,0.6129174616653601,1.9980167756692242,1.8881858093222754,-0.18808845142830455,-0.467363945841061,-1.5771989427324704
-0.3890164148265482,-0.4155499301438767,1.7455029352057738,2.567289649385422,0.3355520232031801,-0.5842575328740658,-0.7434081665659806,1.8446798644113902,0.6581159210330911,2.873679649173337
-0.41222825621678605,-0.14923597738792319,1.1909945323361675,-2.2499460410756824,-1.5685647123478956,1.5875721600274972,1.9722811228018227,-1.7904261104661026,1.901625565025729,2.6938550053329
-0.4809387567212423,0.11108280370708457,1.1992138665557928,1.7263765529022748,0.5906473249286477,2.676404186550537,1.683178802471085,-0.8995384011397367,-1.536570372632494,2.844453580586207
0.11330780511044738,0.284119931329302,1.571952523014348,-2.71952013170805,-1.3888705762745512,-2.5877491095613943,1.7578198130351899,-2.1845864230119094,-0.1523338649390238,2.12251611222232
-0.7334164277337132,0.30089106691881656,1.203827075758153,1.1446799240548073,1.221812513590987,-0.4743065235331936,-0.5209211679321124,2.013394966227254,1.3991875836812895,-0.6892584608323058
0.7002568320685273,0.23233463127287918,1.3195980370126414,-1.0506617431588599,1.308693204124288,-0.8753928762137053,-0.20987286483783363,-1.603271005648764,2.0281315661361408,1.7598472961765093
-0.2869564103276737,0.2818951607262812,1.3598136743721743,-2.6592443611189305,-1.9334091112496243,-0.20407578761569534,-1.647895299806495,2.8898707812030398,-1.513415627294632,0.8436367778439804
0.4060107667834887,-0.3491790507947048,1.3949172758016706,-0.21213039239164777,-0.9275447620464798,1.7974882881968184,1.7885773674928225,0.10754071058492087,0.25553660912051734,2.8981489082800693
0.5472786537144494,-0.6520512744745284,0.7928288970726511,-2.5039902754324195,1.7954838810196265,-2.8022193301896134,0.4089352957515433,-0.7200128168958875,0.6861794637014942,-3.000794705415372
0.17033946165988417,0.5347228977378654,0.9132685256078477,2.4386053157263983,-1.2380696767932475,-2.3884161372736616,-1.4683845876366037,1.6207730784243473,-1.0572185405109624,-0.9837792138994685
0.49592754014750695,-0.7514182595915483,1.0040400309862159,0.877980809504848,-1.6683465505250816,-1.2984486481580464,0.5198480573950368,1.189916182299871,0.5026387866002131,-0.5075427671591952
0.6397473621986653,-0.6436897333613493,1.2075268681472062,-2.560848513928943,1.4688213866594806,1.6458920883372685,-0.4515679677258355,1.4649397259423824,-0.06161482440240329,1.0430177517166963
0.609057354450538,0.13140473642491507,0.6401669582988444,2.3823196631710446,-1.9264739411244594,2.244531991729462,-0.961621312774201,-0.19630938530853204,0.21873289026424958,-2.5543324274495007
-0.22725343743384332,0.2173738209210709,1.8332766616297227,-0.5330491862088813,0.12413599656366969,1.6444768818682385,-0.89816531751126,0.8948067246650857,-0.8800670467440506,-0.8704037828533062
0.28548156682210896,0.3695637798575121,1.3902799682276967,-2.556036465125129,-0.6716156425938555,1.4646701296459477,-1.731798544739585,-1.7567809883077163,-0.3288975690147704,-3.0131939652431385
-0.6002180678492786,0.10993982453859141,1.6868282062418893,0.8056516772821687,0.7311043576159677,1.5485542820189306,-0.7115977753402007,-2.4454278251486343,0.25151612222405273,-0.13438462546451824
0.15905662644172458,0.7647585475545701,1.1838379811823878,-0.5662978290896477,1.6291284808898574,-1.112674866286353,0.721133872459907,-1.0932426997599516,-0.3913115136533265,2.7568884714041846
0.5517941749359052,-0.07218867425593935,1.5456591247394884,2.359328309414209,-0.680690756980606,-1.7122254057541946,1.158526461230088,1.3038489739672925,-1.2093392652265704,1.3306297150134143
0.10557117136150497,0.3543205544177396,1.6167906346214773,0.6287152469883077,0.2019918274897563,1.8936202883844913,1.3827628185547516,-0.6607539643561529,1.891023475245626,1.8782008045498588
-0.6016107908195196,0.13161265669153055,1.273592325722924,1.842358552231421,1.8357386719824555,-2.400640548165443,-1.3574401964201193,-2.3383862575310217,-0.9602702080106928,0.4107796442326954
-0.03464241497783076,-0.8247974263224264,1.358949771410139,-2.7729870399500562,1.1815108790972544,-1.447190542116299,-0.893594899357983,-0.008773832259997505,-0.866240130144776,-0.7002486497913769
-0.10569904672474881,-0.17564652342434625,1.6656502084247151,0.5912148800408343,-0.9835973129912641,-2.748283585181341,1.6521995216475003,-0.5423669639850597,-0.5512566136976367,-2.6044214566355075
-0.31636779639584467,0.07298621296037007,1.7277138318816772,2.3398471431294374,0.30544613903029383,1.1660611291211542,0.9461624862854241,-1.6457657569737267,1.95117129778418,-2.4737955528283893
-0.6957160679077711,-0.36231617999276183,0.9696596633404041,1.7108320100283358,1.9925823476303401,-1.1698483638240145,0.7825507283997482,-1.1976880516294242,1.5482335841897212,-0.30147480565301654
0.23576212313707995,-0.3888150329690264,1.794641691429381,-1.460303203511279,0.1015733900911493,1.976402725149263,0.9681951044067549,1.079962229177712,0.38562246009017187,0.7741021924487588
-0.18608428481863576,0.03151277248108883,1.7279439456999555,2.7069494360134496,-0.6080720241783286,2.556263200457565,1.1859962596268492,0.3532512694266221,-1.4305413029873273,2.9683620506550876
0.655409313057568,0.0955325464824387,1.4993667205196408,2.0731277975927758,-0.5451172053063167,2.5341935683794703,-1.0508854025434882,1.9653699544647467,0.6444967559009593,1.5933786684224178
-0.20906455091533302,-0.21475505135719197,1.507959160171171,-1.3432479938252804,0.44735911219779156,-2.7772008744385097,-1.805158559036101,2.6860465203097754,-1.1715614426015737,2.7711407578813145
0.4562583701058479,-0.7152832619702327,1.2371379789408952,0.6942807781838556,-1.4935898981103852,1.4470467788159804,-0.05922197014806985,-0.7491820752619143,1.6348208641845972,-0.5918979452302571
0.13736356473792652,0.2243796059194896,1.83639501869833,2.6702212272667984,-0.36497805425085184,0.6770232058326968,0.2523156068893537,-2.924598088428111,-2.057965846060001,-2.2020989217201867
0.4773122610490517,0.39543880656741304,1.064456366472796,-0.7732083934305054,0.8336106709820998,-0.014517217820392947,-1.4470772036596782,-0.7314054334387619,0.4520721036650577,-0.023329879648528173
-0.42792474220457055,0.15832185326731474,1.337037665763271,1.8089091328168396,1.5241568983205735,-2.0972614340662723,-1.8685147314012078,0.40861500095626546,-2.0295188894028344,-0.6239399916795025
0.5316490395104597,-0.3002098223413279,1.2231289603569035,0.4768904999235155,-1.9643945892867765,2.1195164178650097,1.5856864501383963,1.1315418022286319,-0.8539767517316823,2.6200140606758313
-0.05695901926188761,0.568637788291695,1.2916862982541457,0.8267547878634303,1.4523251445096697,1.3206406055448148,1.2718094432007403,2.883468848830193,1.1523006495648045,-2.506660206517258
-0.029488569479159413,-0.30548874880532584,1.8375112299154215,1.923887840690869,-0.2592243376798171,0.4909031869468423,-0.9325263377959625,-1.852133853150608,-0.9144126420855438,0.25611027263901676
0.4465466626412278,-0.6558737457660411,1.3058441066494024,-2.4752113834920544,1.0400728156103178,0.23554347285642718,-0.4646252924402017,-1.1502404770394923,1.7819412057296038,2.944335891058689
-0.26953140975043904,0.19828356293517502,1.9002240830204162,-2.463680967673287,-0.6591237594326536,-0.44552588116258285,-0.4631279365053802,1.8483332581045686,0.48270492361550543,0.922541518253357
0.14134795277936354,-0.8527411701421623,1.4150883786304014,0.33183450413771665,-0.9759587437818149,2.549670375610614,-0.4837940872565587,-2.838099615232839,-0.19049698507606538,-1.1547838641483417
0.6001048962343821,-0.7052218306926694,1.0753392130450168,-2.5452577949235837,1.5800493440322687,1.5535323568103938,-0.26638870592749586,-1.4282877155270308,0.30793485445401103,1.6419247687683254
-0.3876131012032677,0.3813936502380918,0.9664509519736199,-0.02248744967387495,1.4297268853581673,1.0156836574451913,-1.4867450738071533,0.5731337084127937,1.0487666488778458,-1.0424098518027165
0.3155479290397052,0.22615241615564805,0.9128894603178949,-0.4812687014505159,1.1504729597056773,2.5050068029802053,1.9757981882320008,-1.4318595530977358,1.689176606162731,2.410080024552444
-0.5026332649743754,0.46332935209412573,1.4524651719277601,0.8923839080117135,1.1019257599361971,-0.9697152960864279,-0.027883113797133596,-0.45634170226627857,1.9068185662635826,2.712285601397268
0.49746470344232663,0.6328894303704703,1.34455976181941,2.4399718392075864,-1.3543899877453516,2.6031978006773886,0.2706758619351013,-2.6495852781180194,-0.8027547005149502,0.9127158456999891
0.41062552988835643,0.5903540149715497,1.5369784274028588,-0.5176461947031257,1.036442338870199,-0.03941225458526709,0.0677607618296201,-0.6502796150547949,0.9249498586821487,0.7706302749542844
-0.12309820212223735,0.2627029416593348,1.5964500367664136,-1.6996419272764736,0.3788010187119166,-0.842942385832528,1.748908882610916,2.34858346948583,-1.0866481765301288,-1.6182524555057132
-0.5830334333924939,-0.120487863099645,1.1805457621945232,2.1847806088071935,0.6071635071070092,2.486064837480644,1.7350399530849994,2.265573747136368,-0.22301269918842226,2.6901229602223675
0.5254792227653495,0.06783553689111646,1.7017842280982138,-1.7054665658427162,0.7418292168629277,1.2953416303756176,-0.5087735216672193,-1.279655663114786,-1.6165802713677064,-2.560067633347275
0.13489767300099004,-0.7955644596774771,1.4378580804440129,-2.725810861240852,0.8763962631811175,2.2384640529167874,0.691778433256288,-1.3363134923674602,0.9106470705011662,0.5232948919724532
0.7837141731237449,0.37712395315512526,1.1191006293698,-0.9472637083863482,1.5683779356962795,-1.8043800816143443,-0.2493867147599702,-1.132836579915986,-0.2604807436111196,-0.44438683333978
-0.23505013138738706,0.42565473917538366,1.46630490599887,0.09959991927508938,0.1936649993090822,-2.5943537040719327,1.4978374454647025,-1.4353489224653093,-0.8181850602921328,0.6957986508295346
0.15214718374459235,0.1667278051027207,1.839656104189912,-0.2144204098280662,0.5117430150398072,0.3315478554829827,0.6213720922712325,2.4243066053970534,-1.9247664313671893,-1.1221133377705437
-0.22269471227818302,0.43862619576361395,1.0321118191216667,0.6820433059693514,0.7273380456650047,-0.25972798786521833,-1.8335939987731602,2.0251603015273614,-0.2445256624429628,2.8591126854575903
0.41794013522270423,-0.32827144072958503,1.8081273006060805,-1.7546208017299414,0.47407398698285874,1.772740571573753,0.47016815908665555,-1.6116075198100408,0.6771517011284067,2.8269513235723465
0.24278782894775452,0.09902635299725654,1.9075616179377677,-1.7900393104396624,0.10204239506048562,-1.8679655375851447,0.5498456888484773,1.3393892427141414,0.8425669037855901,-2.8595198736368976
-0.3405283334313574,-0.6549079831355608,1.300136001723004,2.7480192101370595,1.7507641770189943,0.4876718817900123,1.0325908933931465,-1.9861902299261236,-1.775401651256498,-1.171413389066423
-0.5580954900712664,-0.37843334982769944,0.7767003588924681,2.4734485800802166,1.8149580444455897,-0.667577759975964,-0.913720093399635,1.2942448888839322,-1.87442897532527,-2.694452802944173
-0.41573680573578037,-0.42995576049388196,1.289592845906748,2.408605587439966,0.3664262419804136,-0.08908450176707561,-1.789678193825642,-2.8746288620492604,0.6953705989026915,-1.6081661857233296
0.015035834117970978,-0.6973276664962371,1.392284556747069,0.7052594248005546,-1.3284414815652794,1.3013052110493564,-1.372827404909084,-2.453147817842651,0.8658491820628855,2.357994881585619
0.6639171593888369,-0.29304648579339854,0.916334247502808,-2.2891660118542236,1.3381594230757883,0.5058093348023989,-1.1907165013161163,-1.4223200550673523,-0.7946359412383877,-2.9045014738402726
-0.4612999020427013,0.5600540361070694,0.7403491541967948,-2.4974948261188836,-2.0264515966732093,0.47594305019709804,0.1751302642183976,-0.0563808420990477,1.2909173869805661,-2.670337527961856
0.40936307493862395,0.180613598280966,1.4131724300533628,-2.3184539185330957,0.26020728365051005,1.3381715058038446,-1.8499083706385187,-0.8722838089805758,-0.7937840689240101,-0.28909282870692943
-0.6907596184116929,0.350046138440706,1.2097841040532746,-2.4540852606242387,-1.5428307235498098,1.9296127320409062,0.8794483409938061,-2.802618395516286,-1.1417677361092204,2.470150976646369
0.07925627448941035,0.3112511363459277,1.6358828063806876,1.935736188984801,-0.978460851017704,-0.6925233571402152,-1.611798310725121,-2.656652207406657,0.9982732651117048,-1.540276421119845
-0.1805784315547432,-0.49167382957043343,0.7731530112626268,-0.5806404926951569,-1.4430805264539033,0.0791783923698568,1.4301808931090312,0.8331143439858026,-1.6198671412903334,-0.20877743143060323
-0.08643772337510486,-0.8692244282727007,0.9974221758124068,0.0641710103881592,-2.0110759847033495,-2.4120370792820416,0.6633230515726298,1.4553707996568606,0.8289587827746967,0.6846475603791911
0.57122388670341,-0.007059468707608953,1.1614062102996867,0.8761763016145179,-2.009570378284418,-1.1851135847270715,-1.6920992195615008,-1.8221775388112071,-0.7784305902707587,1.0409739834688465
-0.31772155800881924,0.06380336741010921,1.390677922759289,0.03042984941337057,1.182305833332829,2.028578016582245,-1.9218943057908053,-2.4083003517283403,-1.301112303909492,2.3984553406820814
-0.3445398347523131,-0.752504925072273,1.3698486335805475,-0.4476271579798632,-1.273166267583827,-2.350647195341629,0.24459417032770236,0.11019662392370533,1.6134642746004735,0.6497817073104941
0.5511564778664967,0.5746003613426389,1.3036490015467992,-0.45740431856051256,1.387860128370483,-1.769420320802648,-0.6214790512672024,0.0032476324929291422,-0.7429166245309009,0.11806527568717495
0.3441128939775152,-0.5742760706835055,1.2138550264905454,-1.9766769146183556,1.012134276934865,2.196109195376296,1.2107179457683075,2.489703011169182,1.6476432903373528,0.8885244948244884
-0.3795780658204391,-0.5283318667773278,0.6558528188609539,-0.3776904802285155,-2.0273907871705172,-0.5467884538431931,0.5570588033308228,-1.236043350828257,-1.8842568286668733,-1.7771912992476
0.6859906956940407,-0.2361298755117611,1.1029970181573299,-1.2501119806191578,1.9366929477791048,-2.112228438728759,-1.1717672184791237,-2.6284409627910814,-0.7279343160060578,2.280653405382249
0.4477575018231621,-0.41260882108180774,0.7786724881320176,0.3341105181321682,-1.759524662459678,-2.0788576767132407,-1.403763445255212,-2.372797606635169,1.6389674195907342,0.01697134128639055
0.8250226118556696,-0.27801866959076893,1.1622489582585043,1.456423187813051,-1.2906295493310362,-0.6329020371929248,0.39810372014170436,0.03691262107883153,-0.6788194948216926,-2.3896832869809934
0.45738259088834954,-0.6982704684044279,0.7433103473725323,0.6080268750479085,-1.890431035246725,0.680717357788954,0.15429723752416624,1.7431075283852269,0.8181410957514998,-0.4883351022518698
0.033847183253023175,-0.1218545291138652,1.7308893944746961,2.42830015738719,-0.7403671846618305,0.3151962086112565,-1.5249647869138365,-1.5167502943431854,1.0025170022633754,-2.264874916160078
-0.033452157347551095,-0.2468839839523805,1.5117126733086186,-1.975813884237676,-0.7061793113786021,-0.3746864579255953,-1.8950877588535104,-1.2167002432435179,1.8864384559508194,1.8258481706045164
-0.31680529563710697,0.10718174629239846,1.2818315773950888,2.618147131729032,0.0034548861453043145,-1.5280813713840262,-2.0040126256662845,0.08499948638312116,1.2564695491234996,2.35030134465975
-0.7150093978611033,0.42480291748111476,1.1240928885794228,-2.2571641122333186,-1.533809873622249,1.9998524840911815,0.2766794993701902,0.796897548968253,1.0996940926941083,2.8175400914846267
-0.5069778008332011,-0.2785869587093668,1.1679253146772484,-1.8553845523099426,-1.7803919474118874,-1.3701139508735622,-1.7176550053831936,-1.077327770215255,-1.7958416133027075,-1.6066747118407574
0.0573290367774366,-0.20789746235707973,1.9906764735930833,-2.6894775465537903,0.13198388620364732,0.012872614873412402,-0.07012391702642451,-0.8425937580201137,0.30319201240341176,0.8828014918334897
-0.8141768304872504,-0.29216494868567217,0.9570029122034591,-1.3281222065701943,-1.7066512887881342,1.5157981517706252,0.23397430791345641,0.5064928040823045,1.0687058526676227,0.7344054618127793
0.17557478545621483,0.23066450937516314,1.7245762091107941,-1.919791747896163,-0.2655936653797548,-2.3601681008535595,1.2830430503336951,2.0710890897817458,-1.3496120722663112,-0.49485186643624024
-0.09916564012668459,0.2359101307178566,1.6881728798252964,1.1513864190019079,0.9811056073304836,-2.424228001248208,-1.4448444009330854,1.3043843939870192,-1.239012866420945,-0.20322372953510381
-0.06253538032269552,-0.617921146417552,0.8693858748965246,0.2316575982688196,-1.1476950764660396,-0.4108781461480131,1.6272258548076217,0.6649005247037021,-0.01176281867464457,-1.3719744946787114
0.017590649765553763,0.6892028638132823,1.1456389337435862,0.5199610786259994,1.8891547545005092,1.0416313677328097,1.2512118617118424,0.3297425379162595,0.2734180809874682,-0.007754209795232558
0.05658088286839741,-0.06679537296207523,1.9576399758468035,2.6021211577295555,0.13211643196191636,2.5530738660303185,-0.4749550356866452,-0.31207679991269677,-1.1303841443242315,-2.5711739348132476
0.2899394390892227,-0.0028625784732050283,1.8458843207731108,-0.11751019729939216,0.5073935617873673,0.7911111945780331,1.0077200617457187,-2.477670178177389,-0.11046175467895747,-0.594019392241866
0.02978336083701831,-0.34005892189670134,0.7284825229345372,2.688373575320957,1.6989987744096227,-2.5497920823975235,2.013126961260597,-2.1856007290698276,-1.6781992924594582,1.1307533599290678
0.6627996790410287,0.07772216262802337,1.1177786073870182,2.0579505091844603,-1.979291969516682,-2.7150775274557506,1.0467600271840296,1.3704504594824969,-2.043131558105888,-1.5996702588174911
-0.14332964111441757,0.367387687917933,1.3274870715194027,2.039595199972155,-0.1305605429517509,1.5164749688694408,1.9747113224126291,-0.7658583805209656,-0.14485571456353608,1.1483480561762502
-0.13386476193368632,-0.167934483828562,1.9555671735283813,0.6714587778706038,0.02523170281630316,1.5497112822766357,-0.2989338601608822,0.6549457295878613,0.7639506310232873,-0.283174044917319
0.5065160940656417,0.4203170075920425,1.3056058966650073,2.268988260351215,-0.8788854159198123,-0.06554994936250225,0.742100516142298,-2.3387033420988668,1.9751707620758499,1.127779691940939
-0.43158509328919764,0.278496100608255,1.7869788805041564,0.8258814064595894,0.7415184834726505,-2.844259585441657,-0.07162415674663691,-1.4265226428366684,0.9703828023130905,2.6675278814385153
-0.34285475445095004,-0.04334383364129301,1.3541157355436846,2.3815801091229836,-0.1693876817675184,2.57162633622317,2.021388564295937,2.086019698602867,1.2946560531445424,2.652069036947719
0.24556035487499772,-0.015270159820791385,1.8260696487828576,2.5088406985280103,-0.39225704234074077,-1.7889600049809244,0.5402631998982064,-1.4160109664978227,-2.006294429727948,-1.5411498323265784
0.6019664914987841,-0.4770278798268158,1.3100209034227155,0.4693175256200717,-1.5139760847996828,1.8464330459184377,1.041441129101813,-1.2526156147189007,0.9575678670973788,-0.9588048340333182
0.15985657512296503,-0.02280007990252416,1.7363409169673447,-2.1554403762794068,0.8560942807235818,2.744628734616811,-1.2268287254539327,0.6824831964632225,1.4382183242670306,1.2239273041302794
0.6457615554653129,-0.014531088151572127,1.5573308652208582,1.1791232806361953,-0.8899250796142444,-1.9102538309876396,-0.6395398894067481,-1.9377361142523821,-1.4010228124286634,1.430597091514572
0.5076221526998875,-0.5702012919772629,1.0532514614237236,-2.0079941229351195,1.783941944769749,-1.954257724897115,-0.6172280475901217,0.19035841674413811,2.0025376821240766,0.13040747613450687
-0.2666833071645375,0.2995395008911745,1.6645187514264732,0.3202532821493347,1.1049049260255974,2.762216360012004,-0.8392761968076423,-0.23491787017889765,1.735186027795883,0.8256727717800381
0.6081552118262992,0.513935039093196,1.2357367233754566,-0.6320274842842859,1.4950705229112082,0.7560036917189543,0.3067114619674385,-1.922951206220284,1.1998059425635108,-0.3666775883250457
-0.2599326066454946,0.23738504791250878,1.710804246580335,-1.683933310922883,-1.0673870439988369,-2.524045836800385,1.2971016556410042,-1.2227346193995063,-0.19348037374846427,2.5438969174771944
-0.2392411427041251,-0.6612534731708527,1.5944366472374747,-0.3246896137990216,-1.0605945920002962,-2.492125993034769,0.07360043587777021,-0.4717820767905203,-1.6315689785011724,0.9367079175821482
0.17694888736273187,-0.16259655556539132,1.8703978299619526,-2.4624581351267363,-0.026249382720914927,0.12182366294588354,-0.41643758188590607,0.5153047744215726,1.6031996510067152,2.0750043372286604
-0.5653316332962787,-0.17662224414040648,1.164883221576447,1.0007846997344663,2.0309658380732927,2.1119374085368503,-1.7007267602899006,2.438489656252717,-0.2855815041574057,-0.8575502807526525
-0.046218339540973194,-0.4416309598710454,1.8272612089935187,-0.9253823117330144,-0.332435338815686,-1.6510895472002922,-0.538378052988747,-0.008355736124615376,0.989162724375654,-0.1624221669259298
